files/blender/Blender/4.5/scripts/presets/FinalLUT/Adanmq_AgfaColor Futura II 200.cube
TITLE "Generated by Foundry::LUT"
LUT_3D_SIZE 5
DOMAIN_MIN 0.000000 0.000000 0.000000
DOMAIN_MAX 0.903226 0.903226 0.903226
0.000000 0.000000 0.000000
0.328857 0.000000 0.000000
0.571777 0.000000 0.000000
0.769043 0.000000 0.000000
0.938965 0.000000 0.000000
0.000000 0.326904 0.000000
0.328857 0.326904 0.000000
0.571777 0.326904 0.000000
0.769043 0.326904 0.000000
0.938965 0.326904 0.000000
0.000000 0.588379 0.000000
0.328857 0.588379 0.000000
0.571777 0.588379 0.000000
0.769043 0.588379 0.000000
0.938965 0.588379 0.000000
0.000000 0.782227 0.000000
0.328857 0.782227 0.000000
0.571777 0.782227 0.000000
0.769043 0.782227 0.000000
0.938965 0.782227 0.000000
0.000000 0.943848 0.000000
0.328857 0.943848 0.000000
0.571777 0.943848 0.000000
0.769043 0.943848 0.000000
0.938965 0.943848 0.000000
0.000000 0.000000 0.270264
0.329102 0.000000 0.270264
0.571777 0.000000 0.270264
0.769043 0.000000 0.270264
0.938965 0.000000 0.270264
0.000000 0.326904 0.270264
0.329102 0.326904 0.270264
0.571777 0.326904 0.270264
0.769043 0.326904 0.270264
0.938965 0.326904 0.270264
0.000000 0.588379 0.270264
0.329102 0.588379 0.270264
0.571777 0.588379 0.270264
0.769043 0.588379 0.270264
0.938965 0.588379 0.270264
0.000000 0.782227 0.270264
0.329102 0.782227 0.270264
0.571777 0.782227 0.270264
0.769043 0.782227 0.270264
0.938965 0.782227 0.270264
0.000000 0.943848 0.270264
0.329102 0.943848 0.270264
0.571777 0.943848 0.270264
0.769043 0.943848 0.270264
0.938965 0.943848 0.270264
0.000001 0.000000 0.522461
0.329102 0.000000 0.522461
0.571777 0.000000 0.522461
0.769043 0.000000 0.522461
0.938965 0.000000 0.522461
0.000001 0.326904 0.522949
0.329102 0.326904 0.522949
0.571777 0.326904 0.522949
0.769043 0.326904 0.522949
0.938965 0.326904 0.522949
0.000001 0.588379 0.522949
0.329102 0.588379 0.522949
0.571777 0.588379 0.522949
0.769043 0.588379 0.522949
0.938965 0.588379 0.522949
0.000001 0.782227 0.522949
0.329102 0.782227 0.522949
0.571777 0.782227 0.522949
0.769043 0.782227 0.522949
0.938965 0.782227 0.522949
0.000001 0.943848 0.522949
0.329102 0.943848 0.522949
0.571777 0.943848 0.522949
0.769043 0.943848 0.522949
0.938965 0.943848 0.522949
0.000001 0.000000 0.729492
0.329102 0.000000 0.729492
0.571777 0.000000 0.729492
0.769043 0.000000 0.729492
0.938965 0.000000 0.729492
0.000001 0.326904 0.729492
0.329102 0.326904 0.729492
0.571777 0.326904 0.729492
0.769043 0.326904 0.729492
0.938965 0.326904 0.729492
0.000001 0.588379 0.729492
0.329102 0.588379 0.729492
0.571777 0.588379 0.729492
0.769043 0.588379 0.729492
0.938965 0.588379 0.729492
0.000001 0.782227 0.729492
0.329102 0.782227 0.729492
0.571777 0.782227 0.729492
0.769043 0.782227 0.729492
0.938965 0.782227 0.729492
0.000001 0.943848 0.729492
0.329102 0.943848 0.729492
0.571777 0.943848 0.729492
0.769043 0.943848 0.729492
0.938965 0.943848 0.729492
0.000002 0.000000 0.928711
0.329102 0.000000 0.928711
0.571777 0.000000 0.928711
0.769043 0.000000 0.928711
0.938965 0.000000 0.928711
0.000002 0.326904 0.928711
0.329102 0.326904 0.928711
0.571777 0.326904 0.928711
0.769043 0.326904 0.928711
0.938965 0.326904 0.928711
0.000002 0.588379 0.928711
0.329102 0.588379 0.928711
0.571777 0.588379 0.928711
0.769043 0.588379 0.928711
0.938965 0.588379 0.928711
0.000002 0.782227 0.928711
0.329102 0.782227 0.928711
0.571777 0.782227 0.928711
0.769043 0.782227 0.928711
0.938965 0.782227 0.928711
0.000002 0.943848 0.928711
0.329102 0.943848 0.928711
0.571777 0.943848 0.928711
0.769043 0.943848 0.928711
0.938965 0.943848 0.928711
