files/blender/Blender/4.5/scripts/presets/FinalLUT/Adanmq_Portra 400n.cube
TITLE "Generated by Foundry::LUT"
LUT_3D_SIZE 5
DOMAIN_MIN 0.000000 0.000000 0.000000
DOMAIN_MAX 0.903226 0.903226 0.903226
0.000000 0.000000 0.000000
0.169678 0.000000 0.000000
0.391357 0.000000 0.000000
0.634277 0.000000 0.000000
0.890625 0.000000 0.000000
0.000000 0.160767 0.000000
0.169678 0.160767 0.000000
0.391357 0.160767 0.000000
0.634277 0.160767 0.000000
0.890625 0.160767 0.000000
0.000000 0.382080 0.000000
0.169678 0.382080 0.000000
0.391357 0.382080 0.000000
0.634277 0.382080 0.000000
0.890625 0.382080 0.000000
0.000000 0.630371 0.000000
0.169678 0.630371 0.000000
0.391357 0.630371 0.000000
0.634277 0.630371 0.000000
0.890625 0.630371 0.000000
0.000000 0.895020 0.000000
0.169678 0.895020 0.000000
0.391357 0.895020 0.000000
0.634277 0.895020 0.000000
0.890625 0.895020 0.000000
0.000000 0.000000 0.135254
0.169800 0.000000 0.135254
0.391357 0.000000 0.135254
0.634277 0.000000 0.135254
0.890625 0.000000 0.135254
0.000000 0.160767 0.135254
0.169800 0.160767 0.135254
0.391357 0.160767 0.135254
0.634277 0.160767 0.135254
0.890625 0.160767 0.135254
0.000000 0.382080 0.135254
0.169800 0.382080 0.135254
0.391357 0.382080 0.135254
0.634277 0.382080 0.135254
0.890625 0.382080 0.135254
0.000000 0.630371 0.135254
0.169800 0.630371 0.135254
0.391357 0.630371 0.135254
0.634277 0.630371 0.135254
0.890625 0.630371 0.135254
0.000000 0.895020 0.135254
0.169800 0.895020 0.135254
0.391357 0.895020 0.135254
0.634277 0.895020 0.135254
0.890625 0.895020 0.135254
0.000000 0.000000 0.347412
0.169800 0.000000 0.347412
0.391357 0.000000 0.347412
0.634766 0.000000 0.347412
0.890625 0.000000 0.347412
0.000000 0.160767 0.347412
0.169800 0.160767 0.347412
0.391357 0.160767 0.347412
0.634766 0.160767 0.347412
0.890625 0.160767 0.347412
0.000000 0.382080 0.347412
0.169800 0.382080 0.347412
0.391357 0.382080 0.347412
0.634766 0.382080 0.347412
0.890625 0.382080 0.347412
0.000000 0.630371 0.347412
0.169800 0.630371 0.347412
0.391357 0.630371 0.347412
0.634766 0.630371 0.347412
0.890625 0.630371 0.347412
0.000000 0.895020 0.347412
0.169800 0.895020 0.347412
0.391357 0.895020 0.347412
0.634766 0.895020 0.347412
0.890625 0.895020 0.347412
0.000000 0.000000 0.601074
0.169800 0.000000 0.601074
0.391357 0.000000 0.601074
0.634766 0.000000 0.601074
0.890625 0.000000 0.601074
0.000000 0.160767 0.601074
0.169800 0.160767 0.601074
0.391357 0.160767 0.601074
0.634766 0.160767 0.601074
0.890625 0.160767 0.601074
0.000000 0.382080 0.601074
0.169800 0.382080 0.601074
0.391357 0.382080 0.601074
0.634766 0.382080 0.601074
0.890625 0.382080 0.601074
0.000000 0.630371 0.601074
0.169800 0.630371 0.601074
0.391357 0.630371 0.601074
0.634766 0.630371 0.601074
0.890625 0.630371 0.601074
0.000000 0.895020 0.601074
0.169800 0.895020 0.601074
0.391357 0.895020 0.601074
0.634766 0.895020 0.601074
0.890625 0.895020 0.601074
0.000001 0.000000 0.886230
0.169922 0.000000 0.886230
0.391602 0.000000 0.886230
0.634766 0.000000 0.886230
0.890625 0.000000 0.886230
0.000001 0.160767 0.886230
0.169922 0.160767 0.886230
0.391602 0.160767 0.886230
0.634766 0.160767 0.886230
0.890625 0.160767 0.886230
0.000001 0.382080 0.886230
0.169922 0.382080 0.886230
0.391602 0.382080 0.886230
0.634766 0.382080 0.886230
0.890625 0.382080 0.886230
0.000001 0.630371 0.886230
0.169922 0.630371 0.886230
0.391602 0.630371 0.886230
0.634766 0.630371 0.886230
0.890625 0.630371 0.886230
0.000001 0.895020 0.886230
0.169922 0.895020 0.886230
0.391602 0.895020 0.886230
0.634766 0.895020 0.886230
0.890625 0.895020 0.886230
