files/blender/Blender/4.5/scripts/presets/FinalLUT/Adanmq_Portra 400n.cube
TITLE "Generated by Foundry::LUT"
LUT_3D_SIZE 32
0.000000 0.000000 0.000000
0.014908 0.000000 0.000000
0.036285 0.000000 0.000000
0.060120 0.000000 0.000000
0.085632 0.000000 0.000000
0.112854 0.000000 0.000000
0.140625 0.000000 0.000000
0.169678 0.000000 0.000000
0.199341 0.000000 0.000000
0.229980 0.000000 0.000000
0.260986 0.000000 0.000000
0.292480 0.000000 0.000000
0.324951 0.000000 0.000000
0.357910 0.000000 0.000000
0.391357 0.000000 0.000000
0.425293 0.000000 0.000000
0.459473 0.000000 0.000000
0.494141 0.000000 0.000000
0.528809 0.000000 0.000000
0.563477 0.000000 0.000000
0.598633 0.000000 0.000000
0.634277 0.000000 0.000000
0.670898 0.000000 0.000000
0.707520 0.000000 0.000000
0.745117 0.000000 0.000000
0.781250 0.000000 0.000000
0.817871 0.000000 0.000000
0.854004 0.000000 0.000000
0.890625 0.000000 0.000000
0.927734 0.000000 0.000000
0.964355 0.000000 0.000000
1.000000 0.000000 0.000000
0.000000 0.013084 0.000000
0.014908 0.013084 0.000000
0.036285 0.013084 0.000000
0.060120 0.013084 0.000000
0.085632 0.013084 0.000000
0.112854 0.013084 0.000000
0.140625 0.013084 0.000000
0.169678 0.013084 0.000000
0.199341 0.013084 0.000000
0.229980 0.013084 0.000000
0.260986 0.013084 0.000000
0.292480 0.013084 0.000000
0.324951 0.013084 0.000000
0.357910 0.013084 0.000000
0.391357 0.013084 0.000000
0.425293 0.013084 0.000000
0.459473 0.013092 0.000000
0.494141 0.013092 0.000000
0.528809 0.013092 0.000000
0.563477 0.013092 0.000000
0.598633 0.013092 0.000000
0.634277 0.013092 0.000000
0.670898 0.013092 0.000000
0.707520 0.013092 0.000000
0.745117 0.013092 0.000000
0.781250 0.013092 0.000000
0.817871 0.013092 0.000000
0.854004 0.013092 0.000000
0.890625 0.013092 0.000000
0.927734 0.013092 0.000000
0.964355 0.013092 0.000000
1.000000 0.013092 0.000000
0.000000 0.032654 0.000000
0.014908 0.032654 0.000000
0.036285 0.032654 0.000000
0.060120 0.032654 0.000000
0.085632 0.032654 0.000000
0.112854 0.032654 0.000000
0.140625 0.032654 0.000000
0.169678 0.032654 0.000000
0.199341 0.032654 0.000000
0.229980 0.032654 0.000000
0.260986 0.032654 0.000000
0.292480 0.032654 0.000000
0.324951 0.032654 0.000000
0.357910 0.032654 0.000000
0.391357 0.032654 0.000000
0.425293 0.032654 0.000000
0.459473 0.032654 0.000000
0.494141 0.032684 0.000000
0.528809 0.032684 0.000000
0.563477 0.032684 0.000000
0.598633 0.032684 0.000000
0.634277 0.032684 0.000000
0.670898 0.032684 0.000000
0.707520 0.032684 0.000000
0.745117 0.032684 0.000000
0.781250 0.032684 0.000000
0.817871 0.032684 0.000000
0.854004 0.032684 0.000000
0.890625 0.032684 0.000000
0.927734 0.032684 0.000000
0.964355 0.032684 0.000000
1.000000 0.032684 0.000000
0.000000 0.055023 0.000000
0.014908 0.055023 0.000000
0.036285 0.055023 0.000000
0.060120 0.055023 0.000000
0.085632 0.055023 0.000000
0.112854 0.055023 0.000000
0.140625 0.055023 0.000000
0.169678 0.055023 0.000000
0.199341 0.055023 0.000000
0.229980 0.055023 0.000000
0.260986 0.055023 0.000000
0.292480 0.055054 0.000000
0.324951 0.055054 0.000000
0.357910 0.055054 0.000000
0.391357 0.055054 0.000000
0.425293 0.055054 0.000000
0.459473 0.055054 0.000000
0.494141 0.055054 0.000000
0.528809 0.055054 0.000000
0.563477 0.055054 0.000000
0.598633 0.055054 0.000000
0.634277 0.055054 0.000000
0.670898 0.055054 0.000000
0.707520 0.055054 0.000000
0.745117 0.055054 0.000000
0.781250 0.055054 0.000000
0.817871 0.055054 0.000000
0.854004 0.055054 0.000000
0.890625 0.055054 0.000000
0.927734 0.055054 0.000000
0.964355 0.055054 0.000000
1.000000 0.055054 0.000000
0.000000 0.079468 0.000000
0.014908 0.079468 0.000000
0.036285 0.079468 0.000000
0.060120 0.079468 0.000000
0.085632 0.079468 0.000000
0.112854 0.079468 0.000000
0.140625 0.079468 0.000000
0.169678 0.079468 0.000000
0.199341 0.079468 0.000000
0.229980 0.079468 0.000000
0.260986 0.079468 0.000000
0.292480 0.079468 0.000000
0.324951 0.079468 0.000000
0.357910 0.079468 0.000000
0.391357 0.079468 0.000000
0.425293 0.079468 0.000000
0.459473 0.079468 0.000000
0.494141 0.079468 0.000000
0.528809 0.079468 0.000000
0.563477 0.079468 0.000000
0.598633 0.079468 0.000000
0.634277 0.079468 0.000000
0.670898 0.079468 0.000000
0.707520 0.079468 0.000000
0.745117 0.079468 0.000000
0.781250 0.079468 0.000000
0.817871 0.079468 0.000000
0.854004 0.079468 0.000000
0.890625 0.079468 0.000000
0.927734 0.079468 0.000000
0.964355 0.079468 0.000000
1.000000 0.079468 0.000000
0.000000 0.105286 0.000000
0.014908 0.105286 0.000000
0.036285 0.105286 0.000000
0.060120 0.105286 0.000000
0.085632 0.105286 0.000000
0.112854 0.105286 0.000000
0.140625 0.105286 0.000000
0.169678 0.105286 0.000000
0.199341 0.105286 0.000000
0.229980 0.105286 0.000000
0.260986 0.105286 0.000000
0.292480 0.105286 0.000000
0.324951 0.105286 0.000000
0.357910 0.105286 0.000000
0.391357 0.105286 0.000000
0.425293 0.105286 0.000000
0.459473 0.105286 0.000000
0.494141 0.105286 0.000000
0.528809 0.105286 0.000000
0.563477 0.105286 0.000000
0.598633 0.105286 0.000000
0.634277 0.105347 0.000000
0.670898 0.105347 0.000000
0.707520 0.105347 0.000000
0.745117 0.105347 0.000000
0.781250 0.105347 0.000000
0.817871 0.105347 0.000000
0.854004 0.105347 0.000000
0.890625 0.105347 0.000000
0.927734 0.105347 0.000000
0.964355 0.105347 0.000000
1.000000 0.105347 0.000000
0.000000 0.132568 0.000000
0.014908 0.132568 0.000000
0.036285 0.132568 0.000000
0.060120 0.132568 0.000000
0.085632 0.132568 0.000000
0.112854 0.132568 0.000000
0.140625 0.132568 0.000000
0.169678 0.132568 0.000000
0.199341 0.132690 0.000000
0.229980 0.132690 0.000000
0.260986 0.132690 0.000000
0.292480 0.132690 0.000000
0.324951 0.132690 0.000000
0.357910 0.132690 0.000000
0.391357 0.132690 0.000000
0.425293 0.132690 0.000000
0.459473 0.132690 0.000000
0.494141 0.132690 0.000000
0.528809 0.132690 0.000000
0.563477 0.132690 0.000000
0.598633 0.132690 0.000000
0.634277 0.132690 0.000000
0.670898 0.132690 0.000000
0.707520 0.132690 0.000000
0.745117 0.132690 0.000000
0.781250 0.132690 0.000000
0.817871 0.132690 0.000000
0.854004 0.132690 0.000000
0.890625 0.132690 0.000000
0.927734 0.132690 0.000000
0.964355 0.132690 0.000000
1.000000 0.132690 0.000000
0.000000 0.160767 0.000000
0.014908 0.160767 0.000000
0.036285 0.160767 0.000000
0.060120 0.160767 0.000000
0.085632 0.160767 0.000000
0.112854 0.160767 0.000000
0.140625 0.160767 0.000000
0.169678 0.160767 0.000000
0.199341 0.160767 0.000000
0.229980 0.160767 0.000000
0.260986 0.160767 0.000000
0.292480 0.160767 0.000000
0.324951 0.160767 0.000000
0.357910 0.160767 0.000000
0.391357 0.160767 0.000000
0.425293 0.160767 0.000000
0.459473 0.160767 0.000000
0.494141 0.160767 0.000000
0.528809 0.160767 0.000000
0.563477 0.160767 0.000000
0.598633 0.160767 0.000000
0.634277 0.160767 0.000000
0.670898 0.160767 0.000000
0.707520 0.160767 0.000000
0.745117 0.160767 0.000000
0.781250 0.160767 0.000000
0.817871 0.160767 0.000000
0.854004 0.160767 0.000000
0.890625 0.160767 0.000000
0.927734 0.160767 0.000000
0.964355 0.160767 0.000000
1.000000 0.160767 0.000000
0.000000 0.190063 0.000000
0.014908 0.190063 0.000000
0.036285 0.190063 0.000000
0.060120 0.190063 0.000000
0.085632 0.190063 0.000000
0.112854 0.190063 0.000000
0.140625 0.190063 0.000000
0.169678 0.190063 0.000000
0.199341 0.190063 0.000000
0.229980 0.190063 0.000000
0.260986 0.190063 0.000000
0.292480 0.190063 0.000000
0.324951 0.190063 0.000000
0.357910 0.190063 0.000000
0.391357 0.190063 0.000000
0.425293 0.190063 0.000000
0.459473 0.190063 0.000000
0.494141 0.190063 0.000000
0.528809 0.190063 0.000000
0.563477 0.190063 0.000000
0.598633 0.190063 0.000000
0.634277 0.190063 0.000000
0.670898 0.190063 0.000000
0.707520 0.190063 0.000000
0.745117 0.190063 0.000000
0.781250 0.190063 0.000000
0.817871 0.190063 0.000000
0.854004 0.190063 0.000000
0.890625 0.190063 0.000000
0.927734 0.190063 0.000000
0.964355 0.190063 0.000000
1.000000 0.190063 0.000000
0.000000 0.220581 0.000000
0.014908 0.220581 0.000000
0.036285 0.220581 0.000000
0.060120 0.220581 0.000000
0.085632 0.220581 0.000000
0.112854 0.220581 0.000000
0.140625 0.220581 0.000000
0.169678 0.220581 0.000000
0.199341 0.220581 0.000000
0.229980 0.220581 0.000000
0.260986 0.220581 0.000000
0.292480 0.220581 0.000000
0.324951 0.220581 0.000000
0.357910 0.220581 0.000000
0.391357 0.220581 0.000000
0.425293 0.220581 0.000000
0.459473 0.220581 0.000000
0.494141 0.220581 0.000000
0.528809 0.220581 0.000000
0.563477 0.220581 0.000000
0.598633 0.220581 0.000000
0.634277 0.220581 0.000000
0.670898 0.220581 0.000000
0.707520 0.220581 0.000000
0.745117 0.220581 0.000000
0.781250 0.220581 0.000000
0.817871 0.220581 0.000000
0.854004 0.220581 0.000000
0.890625 0.220581 0.000000
0.927734 0.220581 0.000000
0.964355 0.220581 0.000000
1.000000 0.220581 0.000000
0.000000 0.251709 0.000000
0.014908 0.251709 0.000000
0.036285 0.251709 0.000000
0.060120 0.251709 0.000000
0.085632 0.251709 0.000000
0.112854 0.251709 0.000000
0.140625 0.251709 0.000000
0.169678 0.251709 0.000000
0.199341 0.251709 0.000000
0.229980 0.251709 0.000000
0.260986 0.251709 0.000000
0.292480 0.251709 0.000000
0.324951 0.251709 0.000000
0.357910 0.251709 0.000000
0.391357 0.251709 0.000000
0.425293 0.251709 0.000000
0.459473 0.251709 0.000000
0.494141 0.251709 0.000000
0.528809 0.251709 0.000000
0.563477 0.251709 0.000000
0.598633 0.251709 0.000000
0.634277 0.251709 0.000000
0.670898 0.251709 0.000000
0.707520 0.251709 0.000000
0.745117 0.251709 0.000000
0.781250 0.251709 0.000000
0.817871 0.251709 0.000000
0.854004 0.251709 0.000000
0.890625 0.251709 0.000000
0.927734 0.251709 0.000000
0.964355 0.251709 0.000000
1.000000 0.251709 0.000000
0.000000 0.282959 0.000000
0.014908 0.282959 0.000000
0.036285 0.282959 0.000000
0.060120 0.282959 0.000000
0.085632 0.282959 0.000000
0.112854 0.282959 0.000000
0.140625 0.282959 0.000000
0.169678 0.282959 0.000000
0.199341 0.282959 0.000000
0.229980 0.282959 0.000000
0.260986 0.282959 0.000000
0.292480 0.282959 0.000000
0.324951 0.282959 0.000000
0.357910 0.282959 0.000000
0.391357 0.282959 0.000000
0.425293 0.282959 0.000000
0.459473 0.282959 0.000000
0.494141 0.282959 0.000000
0.528809 0.282959 0.000000
0.563477 0.282959 0.000000
0.598633 0.282959 0.000000
0.634277 0.282959 0.000000
0.670898 0.282959 0.000000
0.707520 0.282959 0.000000
0.745117 0.282959 0.000000
0.781250 0.282959 0.000000
0.817871 0.282959 0.000000
0.854004 0.282959 0.000000
0.890625 0.282959 0.000000
0.927734 0.282959 0.000000
0.964355 0.282959 0.000000
1.000000 0.282959 0.000000
0.000000 0.314941 0.000000
0.014908 0.314941 0.000000
0.036285 0.314941 0.000000
0.060120 0.314941 0.000000
0.085632 0.314941 0.000000
0.112854 0.314941 0.000000
0.140625 0.314941 0.000000
0.169678 0.314941 0.000000
0.199341 0.314941 0.000000
0.229980 0.314941 0.000000
0.260986 0.314941 0.000000
0.292480 0.314941 0.000000
0.324951 0.314941 0.000000
0.357910 0.314941 0.000000
0.391357 0.314941 0.000000
0.425293 0.314941 0.000000
0.459473 0.314941 0.000000
0.494141 0.314941 0.000000
0.528809 0.314941 0.000000
0.563477 0.314941 0.000000
0.598633 0.314941 0.000000
0.634277 0.314941 0.000000
0.670898 0.314941 0.000000
0.707520 0.314941 0.000000
0.745117 0.314941 0.000000
0.781250 0.314941 0.000000
0.817871 0.314941 0.000000
0.854004 0.314941 0.000000
0.890625 0.314941 0.000000
0.927734 0.314941 0.000000
0.964355 0.314941 0.000000
1.000000 0.314941 0.000000
0.000000 0.348145 0.000000
0.014908 0.348145 0.000000
0.036285 0.348145 0.000000
0.060120 0.348145 0.000000
0.085632 0.348145 0.000000
0.112854 0.348145 0.000000
0.140625 0.348145 0.000000
0.169678 0.348145 0.000000
0.199341 0.348145 0.000000
0.229980 0.348145 0.000000
0.260986 0.348145 0.000000
0.292480 0.348145 0.000000
0.324951 0.348145 0.000000
0.357910 0.348145 0.000000
0.391357 0.348145 0.000000
0.425293 0.348145 0.000000
0.459473 0.348145 0.000000
0.494141 0.348145 0.000000
0.528809 0.348145 0.000000
0.563477 0.348145 0.000000
0.598633 0.348145 0.000000
0.634277 0.348145 0.000000
0.670898 0.348145 0.000000
0.707520 0.348145 0.000000
0.745117 0.348145 0.000000
0.781250 0.348145 0.000000
0.817871 0.348145 0.000000
0.854004 0.348145 0.000000
0.890625 0.348145 0.000000
0.927734 0.348145 0.000000
0.964355 0.348145 0.000000
1.000000 0.348145 0.000000
0.000000 0.382080 0.000000
0.014908 0.382080 0.000000
0.036285 0.382080 0.000000
0.060120 0.382080 0.000000
0.085632 0.382080 0.000000
0.112854 0.382080 0.000000
0.140625 0.382080 0.000000
0.169678 0.382080 0.000000
0.199341 0.382080 0.000000
0.229980 0.382080 0.000000
0.260986 0.382080 0.000000
0.292480 0.382080 0.000000
0.324951 0.382080 0.000000
0.357910 0.382080 0.000000
0.391357 0.382080 0.000000
0.425293 0.382080 0.000000
0.459473 0.382080 0.000000
0.494141 0.382080 0.000000
0.528809 0.382080 0.000000
0.563477 0.382080 0.000000
0.598633 0.382080 0.000000
0.634277 0.382080 0.000000
0.670898 0.382080 0.000000
0.707520 0.382080 0.000000
0.745117 0.382080 0.000000
0.781250 0.382080 0.000000
0.817871 0.382080 0.000000
0.854004 0.382080 0.000000
0.890625 0.382080 0.000000
0.927734 0.382080 0.000000
0.964355 0.382080 0.000000
1.000000 0.382080 0.000000
0.000000 0.416504 0.000000
0.014908 0.416504 0.000000
0.036285 0.416504 0.000000
0.060120 0.416504 0.000000
0.085632 0.416504 0.000000
0.112854 0.416504 0.000000
0.140625 0.416504 0.000000
0.169678 0.416504 0.000000
0.199341 0.416504 0.000000
0.229980 0.416504 0.000000
0.260986 0.416504 0.000000
0.292480 0.416504 0.000000
0.324951 0.416504 0.000000
0.357910 0.416504 0.000000
0.391357 0.416504 0.000000
0.425293 0.416504 0.000000
0.459473 0.416504 0.000000
0.494141 0.416504 0.000000
0.528809 0.416504 0.000000
0.563477 0.416504 0.000000
0.598633 0.416504 0.000000
0.634277 0.416504 0.000000
0.670898 0.416504 0.000000
0.707520 0.416504 0.000000
0.745117 0.416504 0.000000
0.781250 0.416504 0.000000
0.817871 0.416504 0.000000
0.854004 0.416504 0.000000
0.890625 0.416504 0.000000
0.927734 0.416504 0.000000
0.964355 0.416504 0.000000
1.000000 0.416504 0.000000
0.000000 0.450684 0.000000
0.014908 0.450684 0.000000
0.036285 0.450684 0.000000
0.060120 0.450684 0.000000
0.085632 0.450684 0.000000
0.112854 0.450684 0.000000
0.140625 0.450684 0.000000
0.169678 0.450684 0.000000
0.199341 0.450684 0.000000
0.229980 0.450684 0.000000
0.260986 0.450684 0.000000
0.292480 0.450684 0.000000
0.324951 0.450684 0.000000
0.357910 0.450684 0.000000
0.391357 0.450684 0.000000
0.425293 0.450684 0.000000
0.459473 0.450684 0.000000
0.494141 0.450684 0.000000
0.528809 0.450684 0.000000
0.563477 0.450684 0.000000
0.598633 0.450684 0.000000
0.634277 0.450684 0.000000
0.670898 0.450684 0.000000
0.707520 0.450684 0.000000
0.745117 0.450684 0.000000
0.781250 0.450684 0.000000
0.817871 0.450684 0.000000
0.854004 0.450684 0.000000
0.890625 0.450684 0.000000
0.927734 0.450684 0.000000
0.964355 0.450684 0.000000
1.000000 0.450684 0.000000
0.000000 0.485352 0.000000
0.014908 0.485352 0.000000
0.036285 0.485352 0.000000
0.060120 0.485352 0.000000
0.085632 0.485352 0.000000
0.112854 0.485352 0.000000
0.140625 0.485352 0.000000
0.169678 0.485352 0.000000
0.199341 0.485352 0.000000
0.229980 0.485352 0.000000
0.260986 0.485352 0.000000
0.292480 0.485352 0.000000
0.324951 0.485352 0.000000
0.357910 0.485352 0.000000
0.391357 0.485352 0.000000
0.425293 0.485352 0.000000
0.459473 0.485352 0.000000
0.494141 0.485352 0.000000
0.528809 0.485352 0.000000
0.563477 0.485352 0.000000
0.598633 0.485352 0.000000
0.634277 0.485352 0.000000
0.670898 0.485352 0.000000
0.707520 0.485352 0.000000
0.745117 0.485596 0.000000
0.781250 0.485596 0.000000
0.817871 0.485596 0.000000
0.854004 0.485596 0.000000
0.890625 0.485596 0.000000
0.927734 0.485596 0.000000
0.964355 0.485596 0.000000
1.000000 0.485596 0.000000
0.000000 0.520508 0.000000
0.014908 0.520508 0.000000
0.036285 0.520508 0.000000
0.060120 0.520508 0.000000
0.085632 0.520508 0.000000
0.112854 0.520508 0.000000
0.140625 0.520508 0.000000
0.169678 0.520508 0.000000
0.199341 0.520508 0.000000
0.229980 0.520508 0.000000
0.260986 0.520508 0.000000
0.292480 0.520508 0.000000
0.324951 0.520508 0.000000
0.357910 0.520508 0.000000
0.391357 0.520508 0.000000
0.425293 0.520508 0.000000
0.459473 0.520508 0.000000
0.494141 0.520508 0.000000
0.528809 0.520508 0.000000
0.563477 0.520508 0.000000
0.598633 0.520508 0.000000
0.634277 0.520508 0.000000
0.670898 0.520508 0.000000
0.707520 0.520508 0.000000
0.745117 0.520508 0.000000
0.781250 0.520508 0.000000
0.817871 0.520508 0.000000
0.854004 0.520508 0.000000
0.890625 0.520508 0.000000
0.927734 0.520508 0.000000
0.964355 0.520508 0.000000
1.000000 0.520508 0.000000
0.000000 0.556641 0.000000
0.014908 0.556641 0.000000
0.036285 0.556641 0.000000
0.060120 0.556641 0.000000
0.085632 0.556641 0.000000
0.112854 0.556641 0.000000
0.140625 0.556641 0.000000
0.169678 0.556641 0.000000
0.199341 0.556641 0.000000
0.229980 0.556641 0.000000
0.260986 0.556641 0.000000
0.292480 0.556641 0.000000
0.324951 0.556641 0.000000
0.357910 0.556641 0.000000
0.391357 0.556641 0.000000
0.425293 0.556641 0.000000
0.459473 0.556641 0.000000
0.494141 0.556641 0.000000
0.528809 0.556641 0.000000
0.563477 0.556641 0.000000
0.598633 0.556641 0.000000
0.634277 0.556641 0.000000
0.670898 0.556641 0.000000
0.707520 0.556641 0.000000
0.745117 0.556641 0.000000
0.781250 0.556641 0.000000
0.817871 0.556641 0.000000
0.854004 0.556641 0.000000
0.890625 0.556641 0.000000
0.927734 0.556641 0.000000
0.964355 0.556641 0.000000
1.000000 0.556641 0.000000
0.000000 0.593262 0.000000
0.014908 0.593262 0.000000
0.036285 0.593262 0.000000
0.060120 0.593262 0.000000
0.085632 0.593262 0.000000
0.112854 0.593262 0.000000
0.140625 0.593262 0.000000
0.169678 0.593262 0.000000
0.199341 0.593262 0.000000
0.229980 0.593262 0.000000
0.260986 0.593262 0.000000
0.292480 0.593262 0.000000
0.324951 0.593262 0.000000
0.357910 0.593262 0.000000
0.391357 0.593262 0.000000
0.425293 0.593262 0.000000
0.459473 0.593262 0.000000
0.494141 0.593262 0.000000
0.528809 0.593262 0.000000
0.563477 0.593262 0.000000
0.598633 0.593262 0.000000
0.634277 0.593262 0.000000
0.670898 0.593262 0.000000
0.707520 0.593262 0.000000
0.745117 0.593262 0.000000
0.781250 0.593262 0.000000
0.817871 0.593262 0.000000
0.854004 0.593262 0.000000
0.890625 0.593262 0.000000
0.927734 0.593262 0.000000
0.964355 0.593262 0.000000
1.000000 0.593262 0.000000
0.000000 0.630371 0.000000
0.014908 0.630371 0.000000
0.036285 0.630371 0.000000
0.060120 0.630371 0.000000
0.085632 0.630371 0.000000
0.112854 0.630371 0.000000
0.140625 0.630371 0.000000
0.169678 0.630371 0.000000
0.199341 0.630371 0.000000
0.229980 0.630371 0.000000
0.260986 0.630371 0.000000
0.292480 0.630371 0.000000
0.324951 0.630371 0.000000
0.357910 0.630371 0.000000
0.391357 0.630371 0.000000
0.425293 0.630371 0.000000
0.459473 0.630371 0.000000
0.494141 0.630371 0.000000
0.528809 0.630371 0.000000
0.563477 0.630371 0.000000
0.598633 0.630371 0.000000
0.634277 0.630371 0.000000
0.670898 0.630371 0.000000
0.707520 0.630371 0.000000
0.745117 0.630371 0.000000
0.781250 0.630371 0.000000
0.817871 0.630371 0.000000
0.854004 0.630371 0.000000
0.890625 0.630371 0.000000
0.927734 0.630371 0.000000
0.964355 0.630371 0.000000
1.000000 0.630371 0.000000
0.000000 0.667480 0.000000
0.014908 0.667480 0.000000
0.036285 0.667480 0.000000
0.060120 0.667480 0.000000
0.085632 0.667480 0.000000
0.112854 0.667480 0.000000
0.140625 0.667480 0.000000
0.169678 0.667480 0.000000
0.199341 0.667480 0.000000
0.229980 0.667480 0.000000
0.260986 0.667480 0.000000
0.292480 0.667480 0.000000
0.324951 0.667480 0.000000
0.357910 0.667480 0.000000
0.391357 0.667480 0.000000
0.425293 0.667480 0.000000
0.459473 0.667480 0.000000
0.494141 0.667480 0.000000
0.528809 0.667480 0.000000
0.563477 0.667480 0.000000
0.598633 0.667480 0.000000
0.634277 0.667480 0.000000
0.670898 0.667480 0.000000
0.707520 0.667480 0.000000
0.745117 0.667480 0.000000
0.781250 0.667480 0.000000
0.817871 0.667480 0.000000
0.854004 0.667480 0.000000
0.890625 0.667480 0.000000
0.927734 0.667480 0.000000
0.964355 0.667480 0.000000
1.000000 0.667480 0.000000
0.000000 0.705078 0.000000
0.014908 0.705078 0.000000
0.036285 0.705078 0.000000
0.060120 0.705078 0.000000
0.085632 0.705078 0.000000
0.112854 0.705078 0.000000
0.140625 0.705078 0.000000
0.169678 0.705078 0.000000
0.199341 0.705078 0.000000
0.229980 0.705078 0.000000
0.260986 0.705078 0.000000
0.292480 0.705078 0.000000
0.324951 0.705078 0.000000
0.357910 0.705078 0.000000
0.391357 0.705078 0.000000
0.425293 0.705078 0.000000
0.459473 0.705078 0.000000
0.494141 0.705078 0.000000
0.528809 0.705078 0.000000
0.563477 0.705078 0.000000
0.598633 0.705078 0.000000
0.634277 0.705078 0.000000
0.670898 0.705078 0.000000
0.707520 0.705078 0.000000
0.745117 0.705078 0.000000
0.781250 0.705078 0.000000
0.817871 0.705078 0.000000
0.854004 0.705078 0.000000
0.890625 0.705078 0.000000
0.927734 0.705078 0.000000
0.964355 0.705078 0.000000
1.000000 0.705078 0.000000
0.000000 0.743164 0.000000
0.014908 0.743164 0.000000
0.036285 0.743164 0.000000
0.060120 0.743164 0.000000
0.085632 0.743164 0.000000
0.112854 0.743164 0.000000
0.140625 0.743164 0.000000
0.169678 0.743164 0.000000
0.199341 0.743164 0.000000
0.229980 0.743164 0.000000
0.260986 0.743164 0.000000
0.292480 0.743164 0.000000
0.324951 0.743164 0.000000
0.357910 0.743164 0.000000
0.391357 0.743164 0.000000
0.425293 0.743164 0.000000
0.459473 0.743164 0.000000
0.494141 0.743164 0.000000
0.528809 0.743164 0.000000
0.563477 0.743164 0.000000
0.598633 0.743164 0.000000
0.634277 0.743164 0.000000
0.670898 0.743164 0.000000
0.707520 0.743164 0.000000
0.745117 0.743164 0.000000
0.781250 0.743164 0.000000
0.817871 0.743164 0.000000
0.854004 0.743164 0.000000
0.890625 0.743164 0.000000
0.927734 0.743164 0.000000
0.964355 0.743164 0.000000
1.000000 0.743164 0.000000
0.000000 0.780762 0.000000
0.014908 0.780762 0.000000
0.036285 0.780762 0.000000
0.060120 0.780762 0.000000
0.085632 0.780762 0.000000
0.112854 0.780762 0.000000
0.140625 0.780762 0.000000
0.169678 0.780762 0.000000
0.199341 0.780762 0.000000
0.229980 0.780762 0.000000
0.260986 0.780762 0.000000
0.292480 0.780762 0.000000
0.324951 0.780762 0.000000
0.357910 0.780762 0.000000
0.391357 0.780762 0.000000
0.425293 0.780762 0.000000
0.459473 0.780762 0.000000
0.494141 0.780762 0.000000
0.528809 0.780762 0.000000
0.563477 0.780762 0.000000
0.598633 0.780762 0.000000
0.634277 0.780762 0.000000
0.670898 0.780762 0.000000
0.707520 0.780762 0.000000
0.745117 0.780762 0.000000
0.781250 0.780762 0.000000
0.817871 0.780762 0.000000
0.854004 0.780762 0.000000
0.890625 0.780762 0.000000
0.927734 0.780762 0.000000
0.964355 0.780762 0.000000
1.000000 0.780762 0.000000
0.000000 0.818848 0.000000
0.014908 0.818848 0.000000
0.036285 0.818848 0.000000
0.060120 0.818848 0.000000
0.085632 0.818848 0.000000
0.112854 0.818848 0.000000
0.140625 0.818848 0.000000
0.169678 0.818848 0.000000
0.199341 0.818848 0.000000
0.229980 0.818848 0.000000
0.260986 0.818848 0.000000
0.292480 0.818848 0.000000
0.324951 0.818848 0.000000
0.357910 0.818848 0.000000
0.391357 0.818848 0.000000
0.425293 0.818848 0.000000
0.459473 0.818848 0.000000
0.494141 0.818848 0.000000
0.528809 0.818848 0.000000
0.563477 0.818848 0.000000
0.598633 0.818848 0.000000
0.634277 0.818848 0.000000
0.670898 0.818848 0.000000
0.707520 0.818848 0.000000
0.745117 0.818848 0.000000
0.781250 0.818848 0.000000
0.817871 0.818848 0.000000
0.854004 0.818848 0.000000
0.890625 0.818848 0.000000
0.927734 0.818848 0.000000
0.964355 0.818848 0.000000
1.000000 0.818848 0.000000
0.000000 0.857422 0.000000
0.014908 0.857422 0.000000
0.036285 0.857422 0.000000
0.060120 0.857422 0.000000
0.085632 0.857422 0.000000
0.112854 0.857422 0.000000
0.140625 0.857422 0.000000
0.169678 0.857422 0.000000
0.199341 0.857422 0.000000
0.229980 0.857422 0.000000
0.260986 0.857422 0.000000
0.292480 0.857422 0.000000
0.324951 0.857422 0.000000
0.357910 0.857422 0.000000
0.391357 0.857422 0.000000
0.425293 0.857422 0.000000
0.459473 0.857422 0.000000
0.494141 0.857422 0.000000
0.528809 0.857422 0.000000
0.563477 0.857422 0.000000
0.598633 0.857422 0.000000
0.634277 0.857422 0.000000
0.670898 0.857422 0.000000
