files/blender/Blender/4.5/scripts/presets/FinalLUT/Adanmq_Portra 400n.cube
TITLE "Generated by Foundry::LUT"
LUT_3D_SIZE 8
DOMAIN_MIN 0.000000 0.000000 0.000000
DOMAIN_MAX 0.903226 0.903226 0.903226
0.000000 0.000000 0.000000
0.085632 0.000000 0.000000
0.199341 0.000000 0.000000
0.324951 0.000000 0.000000
0.459473 0.000000 0.000000
0.598633 0.000000 0.000000
0.745117 0.000000 0.000000
0.890625 0.000000 0.000000
0.000000 0.079468 0.000000
0.085632 0.079468 0.000000
0.199341 0.079468 0.000000
0.324951 0.079468 0.000000
0.459473 0.079468 0.000000
0.598633 0.079468 0.000000
0.745117 0.079468 0.000000
0.890625 0.079468 0.000000
0.000000 0.190063 0.000000
0.085632 0.190063 0.000000
0.199341 0.190063 0.000000
0.324951 0.190063 0.000000
0.459473 0.190063 0.000000
0.598633 0.190063 0.000000
0.745117 0.190063 0.000000
0.890625 0.190063 0.000000
0.000000 0.314941 0.000000
0.085632 0.314941 0.000000
0.199341 0.314941 0.000000
0.324951 0.314941 0.000000
0.459473 0.314941 0.000000
0.598633 0.314941 0.000000
0.745117 0.314941 0.000000
0.890625 0.314941 0.000000
0.000000 0.450684 0.000000
0.085632 0.450684 0.000000
0.199341 0.450684 0.000000
0.324951 0.450684 0.000000
0.459473 0.450684 0.000000
0.598633 0.450684 0.000000
0.745117 0.450684 0.000000
0.890625 0.450684 0.000000
0.000000 0.593262 0.000000
0.085632 0.593262 0.000000
0.199341 0.593262 0.000000
0.324951 0.593262 0.000000
0.459473 0.593262 0.000000
0.598633 0.593262 0.000000
0.745117 0.593262 0.000000
0.890625 0.593262 0.000000
0.000000 0.743164 0.000000
0.085632 0.743164 0.000000
0.199341 0.743164 0.000000
0.324951 0.743164 0.000000
0.459473 0.743164 0.000000
0.598633 0.743164 0.000000
0.745117 0.743164 0.000000
0.890625 0.743164 0.000000
0.000000 0.895020 0.000000
0.085632 0.895020 0.000000
0.199341 0.895020 0.000000
0.324951 0.895020 0.000000
0.459473 0.895020 0.000000
0.598633 0.895020 0.000000
0.745117 0.895020 0.000000
0.890625 0.895020 0.000000
0.000000 0.000000 0.062805
0.085632 0.000000 0.062805
0.199341 0.000000 0.062805
0.324951 0.000000 0.062805
0.459473 0.000000 0.062805
0.598633 0.000000 0.062805
0.745117 0.000000 0.062805
0.890625 0.000000 0.062805
0.000000 0.079468 0.062805
0.085632 0.079468 0.062805
0.199341 0.079468 0.062805
0.324951 0.079468 0.062805
0.459473 0.079468 0.062805
0.598633 0.079468 0.062805
0.745117 0.079468 0.062805
0.890625 0.079468 0.062805
0.000000 0.190063 0.062805
0.085632 0.190063 0.062805
0.199341 0.190063 0.062805
0.324951 0.190063 0.062805
0.459473 0.190063 0.062805
0.598633 0.190063 0.062805
0.745117 0.190063 0.062805
0.890625 0.190063 0.062805
0.000000 0.314941 0.062805
0.085632 0.314941 0.062805
0.199341 0.314941 0.062805
0.324951 0.314941 0.062805
0.459473 0.314941 0.062805
0.598633 0.314941 0.062805
0.745117 0.314941 0.062805
0.890625 0.314941 0.062805
0.000000 0.450684 0.062805
0.085632 0.450684 0.062805
0.199341 0.450684 0.062805
0.324951 0.450684 0.062805
0.459473 0.450684 0.062805
0.598633 0.450684 0.062805
0.745117 0.450684 0.062805
0.890625 0.450684 0.062805
0.000000 0.593262 0.062805
0.085632 0.593262 0.062805
0.199341 0.593262 0.062805
0.324951 0.593262 0.062805
0.459473 0.593262 0.062805
0.598633 0.593262 0.062805
0.745117 0.593262 0.062805
0.890625 0.593262 0.062805
0.000000 0.743164 0.062805
0.085632 0.743164 0.062805
0.199341 0.743164 0.062805
0.324951 0.743164 0.062805
0.459473 0.743164 0.062805
0.598633 0.743164 0.062805
0.745117 0.743164 0.062805
0.890625 0.743164 0.062805
0.000000 0.895020 0.062805
0.085632 0.895020 0.062805
0.199341 0.895020 0.062805
0.324951 0.895020 0.062805
0.459473 0.895020 0.062805
0.598633 0.895020 0.062805
0.745117 0.895020 0.062805
0.890625 0.895020 0.062805
0.000000 0.000000 0.162354
0.085693 0.000000 0.162354
0.199341 0.000000 0.162354
0.324951 0.000000 0.162354
0.459473 0.000000 0.162354
0.598633 0.000000 0.162354
0.745117 0.000000 0.162354
0.890625 0.000000 0.162354
0.000000 0.079468 0.162354
0.085693 0.079468 0.162354
0.199341 0.079468 0.162354
0.324951 0.079468 0.162354
0.459473 0.079468 0.162354
0.598633 0.079468 0.162354
0.745117 0.079468 0.162354
0.890625 0.079468 0.162354
0.000000 0.190063 0.162354
0.085693 0.190063 0.162354
0.199341 0.190063 0.162354
0.324951 0.190063 0.162354
0.459473 0.190063 0.162354
0.598633 0.190063 0.162354
0.745117 0.190063 0.162354
0.890625 0.190063 0.162354
0.000000 0.314941 0.162354
0.085693 0.314941 0.162354
0.199341 0.314941 0.162354
0.324951 0.314941 0.162354
0.459473 0.314941 0.162354
0.598633 0.314941 0.162354
0.745117 0.314941 0.162354
0.890625 0.314941 0.162354
0.000000 0.450684 0.162354
0.085693 0.450684 0.162354
0.199341 0.450684 0.162354
0.324951 0.450684 0.162354
0.459473 0.450684 0.162354
0.598633 0.450684 0.162354
0.745117 0.450684 0.162354
0.890625 0.450684 0.162354
0.000000 0.593262 0.162354
0.085693 0.593262 0.162354
0.199341 0.593262 0.162354
0.324951 0.593262 0.162354
0.459473 0.593262 0.162354
0.598633 0.593262 0.162354
0.745117 0.593262 0.162354
0.890625 0.593262 0.162354
0.000000 0.743164 0.162354
0.085693 0.743164 0.162354
0.199341 0.743164 0.162354
0.324951 0.743164 0.162354
0.459473 0.743164 0.162354
0.598633 0.743164 0.162354
0.745117 0.743164 0.162354
0.890625 0.743164 0.162354
0.000000 0.895020 0.162354
0.085693 0.895020 0.162354
0.199341 0.895020 0.162354
0.324951 0.895020 0.162354
0.459473 0.895020 0.162354
0.598633 0.895020 0.162354
0.745117 0.895020 0.162354
0.890625 0.895020 0.162354
0.000000 0.000000 0.281738
0.085693 0.000000 0.281738
0.199341 0.000000 0.281738
0.324951 0.000000 0.281738
0.459473 0.000000 0.281738
0.598633 0.000000 0.281738
0.745117 0.000000 0.281738
0.890625 0.000000 0.281738
0.000000 0.079468 0.281738
0.085693 0.079468 0.281738
0.199341 0.079468 0.281738
0.324951 0.079468 0.281738
0.459473 0.079468 0.281738
0.598633 0.079468 0.281738
0.745117 0.079468 0.281738
0.890625 0.079468 0.281738
0.000000 0.190063 0.281738
0.085693 0.190063 0.281738
0.199341 0.190063 0.281738
0.324951 0.190063 0.281738
0.459473 0.190063 0.281738
0.598633 0.190063 0.281738
0.745117 0.190063 0.281738
0.890625 0.190063 0.281738
0.000000 0.314941 0.281738
0.085693 0.314941 0.281738
0.199341 0.314941 0.281738
0.324951 0.314941 0.281738
0.459473 0.314941 0.281738
0.598633 0.314941 0.281738
0.745117 0.314941 0.281738
0.890625 0.314941 0.281738
0.000000 0.450684 0.281738
0.085693 0.450684 0.281738
0.199341 0.450684 0.281738
0.324951 0.450684 0.281738
0.459473 0.450684 0.281738
0.598633 0.450684 0.281738
0.745117 0.450684 0.281738
0.890625 0.450684 0.281738
0.000000 0.593262 0.281738
0.085693 0.593262 0.281738
0.199341 0.593262 0.281738
0.324951 0.593262 0.281738
0.459473 0.593262 0.281738
0.598633 0.593262 0.281738
0.745117 0.593262 0.281738
0.890625 0.593262 0.281738
0.000000 0.743164 0.281738
0.085693 0.743164 0.281738
0.199341 0.743164 0.281738
0.324951 0.743164 0.281738
0.459473 0.743164 0.281738
0.598633 0.743164 0.281738
0.745117 0.743164 0.281738
0.890625 0.743164 0.281738
0.000000 0.895020 0.281738
0.085693 0.895020 0.281738
0.199341 0.895020 0.281738
0.324951 0.895020 0.281738
0.459473 0.895020 0.281738
0.598633 0.895020 0.281738
0.745117 0.895020 0.281738
0.890625 0.895020 0.281738
0.000000 0.000000 0.416504
0.085693 0.000000 0.416504
0.199463 0.000000 0.416504
0.324951 0.000000 0.416504
0.459717 0.000000 0.416504
0.598633 0.000000 0.416504
0.745117 0.000000 0.416504
0.890625 0.000000 0.416504
0.000000 0.079468 0.416504
0.085693 0.079468 0.416504
0.199463 0.079468 0.416504
0.324951 0.079468 0.416504
0.459717 0.079468 0.416504
0.598633 0.079468 0.416504
0.745117 0.079468 0.416504
0.890625 0.079468 0.416504
0.000000 0.190063 0.416504
0.085693 0.190063 0.416504
0.199463 0.190063 0.416504
0.324951 0.190063 0.416504
0.459717 0.190063 0.416504
0.598633 0.190063 0.416504
0.745117 0.190063 0.416504
0.890625 0.190063 0.416504
0.000000 0.314941 0.416504
0.085693 0.314941 0.416504
0.199463 0.314941 0.416504
0.324951 0.314941 0.416504
0.459717 0.314941 0.416504
0.598633 0.314941 0.416504
0.745117 0.314941 0.416504
0.890625 0.314941 0.416504
0.000000 0.450684 0.416504
0.085693 0.450684 0.416504
0.199463 0.450684 0.416504
0.324951 0.450684 0.416504
0.459717 0.450684 0.416504
0.598633 0.450684 0.416504
0.745117 0.450684 0.416504
0.890625 0.450684 0.416504
0.000000 0.593262 0.416504
0.085693 0.593262 0.416504
0.199463 0.593262 0.416504
0.324951 0.593262 0.416504
0.459717 0.593262 0.416504
0.598633 0.593262 0.416504
0.745117 0.593262 0.416504
0.890625 0.593262 0.416504
0.000000 0.743164 0.416504
0.085693 0.743164 0.416504
0.199463 0.743164 0.416504
0.324951 0.743164 0.416504
0.459717 0.743164 0.416504
0.598633 0.743164 0.416504
0.745117 0.743164 0.416504
0.890625 0.743164 0.416504
0.000000 0.895020 0.416504
0.085693 0.895020 0.416504
0.199463 0.895020 0.416504
0.324951 0.895020 0.416504
0.459717 0.895020 0.416504
0.598633 0.895020 0.416504
0.745117 0.895020 0.416504
0.890625 0.895020 0.416504
0.000000 0.000000 0.562012
0.085754 0.000000 0.562012
0.199463 0.000000 0.562012
0.324951 0.000000 0.562012
0.459717 0.000000 0.562012
0.598633 0.000000 0.562012
0.745117 0.000000 0.562012
0.890625 0.000000 0.562012
0.000000 0.079468 0.562012
0.085754 0.079468 0.562012
0.199463 0.079468 0.562012
0.324951 0.079468 0.562012
0.459717 0.079468 0.562012
0.598633 0.079468 0.562012
0.745117 0.079468 0.562012
0.890625 0.079468 0.562012
0.000000 0.189941 0.562012
0.085754 0.190063 0.562012
0.199463 0.190063 0.562012
0.324951 0.190063 0.562012
0.459717 0.190063 0.562012
0.598633 0.190063 0.562012
0.745117 0.190063 0.562012
0.890625 0.190063 0.562012
0.000000 0.314941 0.562012
0.085754 0.314941 0.562012
0.199463 0.314941 0.562012
0.324951 0.314941 0.562012
0.459717 0.314941 0.562012
0.598633 0.314941 0.562012
0.745117 0.314941 0.562012
0.890625 0.314941 0.562012
0.000000 0.450684 0.562012
0.085754 0.450684 0.562012
0.199463 0.450684 0.562012
0.324951 0.450684 0.562012
0.459717 0.450684 0.562012
0.598633 0.450684 0.562012
0.745117 0.450684 0.562012
0.890625 0.450684 0.562012
0.000000 0.593262 0.562012
0.085754 0.593262 0.562012
0.199463 0.593262 0.562012
0.324951 0.593262 0.562012
0.459717 0.593262 0.562012
0.598633 0.593262 0.562012
0.745117 0.593262 0.562012
0.890625 0.593262 0.562012
0.000000 0.743164 0.562012
0.085754 0.743164 0.562012
0.199463 0.743164 0.562012
0.324951 0.743164 0.562012
0.459717 0.743164 0.562012
0.598633 0.743164 0.562012
0.745117 0.743164 0.562012
0.890625 0.743164 0.562012
0.000000 0.895020 0.562012
0.085754 0.895020 0.562012
0.199463 0.895020 0.562012
0.324951 0.895020 0.562012
0.459717 0.895020 0.562012
0.598633 0.895020 0.562012
0.745117 0.895020 0.562012
0.890625 0.895020 0.562012
0.000001 0.000000 0.721680
0.085754 0.000000 0.721680
0.199463 0.000000 0.721680
0.324951 0.000000 0.721680
0.459717 0.000000 0.721680
0.598633 0.000000 0.721680
0.745117 0.000000 0.721680
0.890625 0.000000 0.721680
0.000001 0.079468 0.721680
0.085754 0.079468 0.721680
0.199463 0.079468 0.721680
0.324951 0.079468 0.721680
0.459717 0.079468 0.721680
0.598633 0.079468 0.721680
0.745117 0.079468 0.721680
0.890625 0.079468 0.721680
0.000001 0.189941 0.721680
0.085754 0.189941 0.721680
0.199463 0.190063 0.721680
0.324951 0.190063 0.721680
0.459717 0.190063 0.721680
0.598633 0.190063 0.721680
0.745117 0.190063 0.721680
0.890625 0.190063 0.721680
0.000001 0.314941 0.721680
0.085754 0.314941 0.721680
0.199463 0.314941 0.721680
0.324951 0.314941 0.721680
0.459717 0.314941 0.721680
0.598633 0.314941 0.721680
0.745117 0.314941 0.721680
0.890625 0.314941 0.721680
0.000001 0.450684 0.721680
0.085754 0.450684 0.721680
0.199463 0.450684 0.721680
0.324951 0.450684 0.721680
0.459717 0.450684 0.721680
0.598633 0.450684 0.721680
0.745117 0.450684 0.721680
0.890625 0.450684 0.721680
0.000001 0.593262 0.721680
0.085754 0.593262 0.721680
0.199463 0.593262 0.721680
0.324951 0.593262 0.721680
0.459717 0.593262 0.721680
0.598633 0.593262 0.721680
0.745117 0.593262 0.721680
0.890625 0.593262 0.721680
0.000001 0.743164 0.721680
0.085754 0.743164 0.721680
0.199463 0.743164 0.721680
0.324951 0.743164 0.721680
0.459717 0.743164 0.721680
0.598633 0.743164 0.721680
0.745117 0.743164 0.721680
0.890625 0.743164 0.721680
0.000001 0.895020 0.721680
0.085754 0.895020 0.721680
0.199463 0.895020 0.721680
0.324951 0.895020 0.721680
0.459717 0.895020 0.721680
0.598633 0.895020 0.721680
0.745117 0.895020 0.721680
0.890625 0.895020 0.721680
0.000001 0.000000 0.886230
0.085754 0.000000 0.886230
0.199463 0.000000 0.886230
0.324951 0.000000 0.886230
0.459717 0.000000 0.886230
0.599121 0.000000 0.886230
0.745117 0.000000 0.886230
0.890625 0.000000 0.886230
0.000001 0.079468 0.886230
0.085754 0.079468 0.886230
0.199463 0.079468 0.886230
0.324951 0.079468 0.886230
0.459717 0.079468 0.886230
0.599121 0.079468 0.886230
0.745117 0.079468 0.886230
0.890625 0.079468 0.886230
0.000001 0.189941 0.886230
0.085754 0.189941 0.886230
0.199463 0.189941 0.886230
0.324951 0.190063 0.886230
0.459717 0.190063 0.886230
0.599121 0.190063 0.886230
0.745117 0.190063 0.886230
0.890625 0.190063 0.886230
0.000001 0.314941 0.886230
0.085754 0.314941 0.886230
0.199463 0.314941 0.886230
0.324951 0.314941 0.886230
0.459717 0.314941 0.886230
0.599121 0.314941 0.886230
0.745117 0.314941 0.886230
0.890625 0.314941 0.886230
0.000001 0.450684 0.886230
0.085754 0.450684 0.886230
0.199463 0.450684 0.886230
0.324951 0.450684 0.886230
0.459717 0.450684 0.886230
0.599121 0.450684 0.886230
0.745117 0.450684 0.886230
0.890625 0.450684 0.886230
0.000001 0.593262 0.886230
0.085754 0.593262 0.886230
0.199463 0.593262 0.886230
0.324951 0.593262 0.886230
0.459717 0.593262 0.886230
0.599121 0.593262 0.886230
0.745117 0.593262 0.886230
0.890625 0.593262 0.886230
0.000001 0.743164 0.886230
0.085754 0.743164 0.886230
0.199463 0.743164 0.886230
0.324951 0.743164 0.886230
0.459717 0.743164 0.886230
0.599121 0.743164 0.886230
0.745117 0.743164 0.886230
0.890625 0.743164 0.886230
0.000001 0.895020 0.886230
0.085754 0.895020 0.886230
0.199463 0.895020 0.886230
0.324951 0.895020 0.886230
0.459717 0.895020 0.886230
0.599121 0.895020 0.886230
0.745117 0.895020 0.886230
0.890625 0.895020 0.886230
