files/blender/Blender/4.5/scripts/presets/FinalLUT/Adanmq_AgfaColor Futura II 200.cube
TITLE "Generated by Foundry::LUT"
LUT_3D_SIZE 32
0.000000 0.000000 0.000000
0.035614 0.000000 0.000000
0.087097 0.000000 0.000000
0.140869 0.000000 0.000000
0.193604 0.000000 0.000000
0.242310 0.000000 0.000000
0.287109 0.000000 0.000000
0.328857 0.000000 0.000000
0.368408 0.000000 0.000000
0.406006 0.000000 0.000000
0.441895 0.000000 0.000000
0.476318 0.000000 0.000000
0.509766 0.000000 0.000000
0.541016 0.000000 0.000000
0.571777 0.000000 0.000000
0.602051 0.000000 0.000000
0.631348 0.000000 0.000000
0.660645 0.000000 0.000000
0.688477 0.000000 0.000000
0.715820 0.000000 0.000000
0.742676 0.000000 0.000000
0.769043 0.000000 0.000000
0.794434 0.000000 0.000000
0.819824 0.000000 0.000000
0.844727 0.000000 0.000000
0.869141 0.000000 0.000000
0.893066 0.000000 0.000000
0.916504 0.000000 0.000000
0.938965 0.000000 0.000000
0.960938 0.000000 0.000000
0.981445 0.000000 0.000000
1.000000 0.000000 0.000000
0.000000 0.033691 0.000000
0.035614 0.033691 0.000000
0.087097 0.033691 0.000000
0.140869 0.033691 0.000000
0.193604 0.033691 0.000000
0.242310 0.033691 0.000000
0.287109 0.033691 0.000000
0.328857 0.033691 0.000000
0.368408 0.033691 0.000000
0.406006 0.033691 0.000000
0.441895 0.033691 0.000000
0.476318 0.033691 0.000000
0.509766 0.033691 0.000000
0.541016 0.033691 0.000000
0.571777 0.033691 0.000000
0.602051 0.033691 0.000000
0.631348 0.033691 0.000000
0.660645 0.033691 0.000000
0.688477 0.033722 0.000000
0.715820 0.033722 0.000000
0.742676 0.033722 0.000000
0.769043 0.033722 0.000000
0.794434 0.033722 0.000000
0.819824 0.033722 0.000000
0.844727 0.033722 0.000000
0.869141 0.033722 0.000000
0.893066 0.033722 0.000000
0.916504 0.033722 0.000000
0.938965 0.033722 0.000000
0.960938 0.033722 0.000000
0.981445 0.033722 0.000000
1.000000 0.033722 0.000000
0.000000 0.081482 0.000000
0.035614 0.081482 0.000000
0.087097 0.081482 0.000000
0.140869 0.081482 0.000000
0.193604 0.081482 0.000000
0.242310 0.081482 0.000000
0.287109 0.081482 0.000000
0.328857 0.081482 0.000000
0.368408 0.081482 0.000000
0.406006 0.081482 0.000000
0.441895 0.081482 0.000000
0.476318 0.081482 0.000000
0.509766 0.081482 0.000000
0.541016 0.081482 0.000000
0.571777 0.081482 0.000000
0.602051 0.081482 0.000000
0.631348 0.081482 0.000000
0.660645 0.081482 0.000000
0.688477 0.081482 0.000000
0.715820 0.081482 0.000000
0.742676 0.081482 0.000000
0.769043 0.081482 0.000000
0.794434 0.081482 0.000000
0.819824 0.081482 0.000000
0.844727 0.081543 0.000000
0.869141 0.081543 0.000000
0.893066 0.081543 0.000000
0.916504 0.081543 0.000000
0.938965 0.081543 0.000000
0.960938 0.081543 0.000000
0.981445 0.081543 0.000000
1.000000 0.081543 0.000000
0.000000 0.131958 0.000000
0.035614 0.131958 0.000000
0.087097 0.131958 0.000000
0.140869 0.131958 0.000000
0.193604 0.131958 0.000000
0.242310 0.131958 0.000000
0.287109 0.131958 0.000000
0.328857 0.131958 0.000000
0.368408 0.131958 0.000000
0.406006 0.131958 0.000000
0.441895 0.131958 0.000000
0.476318 0.131958 0.000000
0.509766 0.131958 0.000000
0.541016 0.131958 0.000000
0.571777 0.131958 0.000000
0.602051 0.131958 0.000000
0.631348 0.131958 0.000000
0.660645 0.131958 0.000000
0.688477 0.131958 0.000000
0.715820 0.131958 0.000000
0.742676 0.131958 0.000000
0.769043 0.131958 0.000000
0.794434 0.131958 0.000000
0.819824 0.131958 0.000000
0.844727 0.131958 0.000000
0.869141 0.131958 0.000000
0.893066 0.131958 0.000000
0.916504 0.131958 0.000000
0.938965 0.131958 0.000000
0.960938 0.131958 0.000000
0.981445 0.131958 0.000000
1.000000 0.131958 0.000000
0.000000 0.182739 0.000000
0.035614 0.182739 0.000000
0.087097 0.182739 0.000000
0.140869 0.182739 0.000000
0.193604 0.182739 0.000000
0.242310 0.182739 0.000000
0.287109 0.182739 0.000000
0.328857 0.182739 0.000000
0.368408 0.182739 0.000000
0.406006 0.182739 0.000000
0.441895 0.182739 0.000000
0.476318 0.182739 0.000000
0.509766 0.182739 0.000000
0.541016 0.182739 0.000000
0.571777 0.182739 0.000000
0.602051 0.182739 0.000000
0.631348 0.182739 0.000000
0.660645 0.182739 0.000000
0.688477 0.182739 0.000000
0.715820 0.182739 0.000000
0.742676 0.182739 0.000000
0.769043 0.182739 0.000000
0.794434 0.182739 0.000000
0.819824 0.182739 0.000000
0.844727 0.182739 0.000000
0.869141 0.182739 0.000000
0.893066 0.182739 0.000000
0.916504 0.182739 0.000000
0.938965 0.182739 0.000000
0.960938 0.182739 0.000000
0.981445 0.182739 0.000000
1.000000 0.182739 0.000000
0.000000 0.232910 0.000000
0.035614 0.232910 0.000000
0.087097 0.232910 0.000000
0.140869 0.232910 0.000000
0.193604 0.232910 0.000000
0.242310 0.232910 0.000000
0.287109 0.232910 0.000000
0.328857 0.232910 0.000000
0.368408 0.232910 0.000000
0.406006 0.232910 0.000000
0.441895 0.232910 0.000000
0.476318 0.232910 0.000000
0.509766 0.232910 0.000000
0.541016 0.232910 0.000000
0.571777 0.232910 0.000000
0.602051 0.232910 0.000000
0.631348 0.232910 0.000000
0.660645 0.232910 0.000000
0.688477 0.232910 0.000000
0.715820 0.232910 0.000000
0.742676 0.233032 0.000000
0.769043 0.233032 0.000000
0.794434 0.233032 0.000000
0.819824 0.233032 0.000000
0.844727 0.233032 0.000000
0.869141 0.233032 0.000000
0.893066 0.233032 0.000000
0.916504 0.233032 0.000000
0.938965 0.233032 0.000000
0.960938 0.233032 0.000000
0.981445 0.233032 0.000000
1.000000 0.233032 0.000000
0.000000 0.281006 0.000000
0.035614 0.281006 0.000000
0.087097 0.281006 0.000000
0.140869 0.281006 0.000000
0.193604 0.281006 0.000000
0.242310 0.281006 0.000000
0.287109 0.281006 0.000000
0.328857 0.281006 0.000000
0.368408 0.281250 0.000000
0.406006 0.281250 0.000000
0.441895 0.281250 0.000000
0.476318 0.281250 0.000000
0.509766 0.281250 0.000000
0.541016 0.281250 0.000000
0.571777 0.281250 0.000000
0.602051 0.281250 0.000000
0.631348 0.281250 0.000000
0.660645 0.281250 0.000000
0.688477 0.281250 0.000000
0.715820 0.281250 0.000000
0.742676 0.281250 0.000000
0.769043 0.281250 0.000000
0.794434 0.281250 0.000000
0.819824 0.281250 0.000000
0.844727 0.281250 0.000000
0.869141 0.281250 0.000000
0.893066 0.281250 0.000000
0.916504 0.281250 0.000000
0.938965 0.281250 0.000000
0.960938 0.281250 0.000000
0.981445 0.281250 0.000000
1.000000 0.281250 0.000000
0.000000 0.326904 0.000000
0.035614 0.326904 0.000000
0.087097 0.326904 0.000000
0.140869 0.326904 0.000000
0.193604 0.326904 0.000000
0.242310 0.326904 0.000000
0.287109 0.326904 0.000000
0.328857 0.326904 0.000000
0.368408 0.326904 0.000000
0.406006 0.326904 0.000000
0.441895 0.326904 0.000000
0.476318 0.326904 0.000000
0.509766 0.326904 0.000000
0.541016 0.326904 0.000000
0.571777 0.326904 0.000000
0.602051 0.326904 0.000000
0.631348 0.326904 0.000000
0.660645 0.326904 0.000000
0.688477 0.326904 0.000000
0.715820 0.326904 0.000000
0.742676 0.326904 0.000000
0.769043 0.326904 0.000000
0.794434 0.326904 0.000000
0.819824 0.326904 0.000000
0.844727 0.326904 0.000000
0.869141 0.326904 0.000000
0.893066 0.326904 0.000000
0.916504 0.326904 0.000000
0.938965 0.326904 0.000000
0.960938 0.326904 0.000000
0.981445 0.326904 0.000000
1.000000 0.326904 0.000000
0.000000 0.370361 0.000000
0.035614 0.370361 0.000000
0.087097 0.370361 0.000000
0.140869 0.370361 0.000000
0.193604 0.370361 0.000000
0.242310 0.370361 0.000000
0.287109 0.370361 0.000000
0.328857 0.370361 0.000000
0.368408 0.370361 0.000000
0.406006 0.370361 0.000000
0.441895 0.370361 0.000000
0.476318 0.370361 0.000000
0.509766 0.370361 0.000000
0.541016 0.370361 0.000000
0.571777 0.370361 0.000000
0.602051 0.370361 0.000000
0.631348 0.370361 0.000000
0.660645 0.370361 0.000000
0.688477 0.370361 0.000000
0.715820 0.370361 0.000000
0.742676 0.370361 0.000000
0.769043 0.370361 0.000000
0.794434 0.370361 0.000000
0.819824 0.370361 0.000000
0.844727 0.370361 0.000000
0.869141 0.370361 0.000000
0.893066 0.370361 0.000000
0.916504 0.370361 0.000000
0.938965 0.370361 0.000000
0.960938 0.370361 0.000000
0.981445 0.370361 0.000000
1.000000 0.370361 0.000000
0.000000 0.411377 0.000000
0.035614 0.411377 0.000000
0.087097 0.411377 0.000000
0.140869 0.411377 0.000000
0.193604 0.411377 0.000000
0.242310 0.411377 0.000000
0.287109 0.411377 0.000000
0.328857 0.411377 0.000000
0.368408 0.411377 0.000000
0.406006 0.411377 0.000000
0.441895 0.411377 0.000000
0.476318 0.411377 0.000000
0.509766 0.411377 0.000000
0.541016 0.411377 0.000000
0.571777 0.411377 0.000000
0.602051 0.411377 0.000000
0.631348 0.411377 0.000000
0.660645 0.411377 0.000000
0.688477 0.411377 0.000000
0.715820 0.411377 0.000000
0.742676 0.411377 0.000000
0.769043 0.411377 0.000000
0.794434 0.411377 0.000000
0.819824 0.411377 0.000000
0.844727 0.411377 0.000000
0.869141 0.411377 0.000000
0.893066 0.411377 0.000000
0.916504 0.411377 0.000000
0.938965 0.411377 0.000000
0.960938 0.411377 0.000000
0.981445 0.411377 0.000000
1.000000 0.411377 0.000000
0.000000 0.450439 0.000000
0.035614 0.450439 0.000000
0.087097 0.450439 0.000000
0.140869 0.450439 0.000000
0.193604 0.450439 0.000000
0.242310 0.450439 0.000000
0.287109 0.450439 0.000000
0.328857 0.450439 0.000000
0.368408 0.450439 0.000000
0.406006 0.450439 0.000000
0.441895 0.450439 0.000000
0.476318 0.450439 0.000000
0.509766 0.450439 0.000000
0.541016 0.450439 0.000000
0.571777 0.450439 0.000000
0.602051 0.450439 0.000000
0.631348 0.450439 0.000000
0.660645 0.450439 0.000000
0.688477 0.450439 0.000000
0.715820 0.450439 0.000000
0.742676 0.450439 0.000000
0.769043 0.450439 0.000000
0.794434 0.450439 0.000000
0.819824 0.450439 0.000000
0.844727 0.450439 0.000000
0.869141 0.450439 0.000000
0.893066 0.450439 0.000000
0.916504 0.450439 0.000000
0.938965 0.450439 0.000000
0.960938 0.450439 0.000000
0.981445 0.450439 0.000000
1.000000 0.450439 0.000000
0.000000 0.487549 0.000000
0.035614 0.487549 0.000000
0.087097 0.487549 0.000000
0.140869 0.487549 0.000000
0.193604 0.487549 0.000000
0.242310 0.487549 0.000000
0.287109 0.487549 0.000000
0.328857 0.487549 0.000000
0.368408 0.487549 0.000000
0.406006 0.487549 0.000000
0.441895 0.487549 0.000000
0.476318 0.487549 0.000000
0.509766 0.487549 0.000000
0.541016 0.487549 0.000000
0.571777 0.487549 0.000000
0.602051 0.487549 0.000000
0.631348 0.487549 0.000000
0.660645 0.487549 0.000000
0.688477 0.487549 0.000000
0.715820 0.487549 0.000000
0.742676 0.487549 0.000000
0.769043 0.487549 0.000000
0.794434 0.487549 0.000000
0.819824 0.487549 0.000000
0.844727 0.487549 0.000000
0.869141 0.487549 0.000000
0.893066 0.487549 0.000000
0.916504 0.487549 0.000000
0.938965 0.487549 0.000000
0.960938 0.487549 0.000000
0.981445 0.487549 0.000000
1.000000 0.487549 0.000000
0.000000 0.522949 0.000000
0.035614 0.522949 0.000000
0.087097 0.522949 0.000000
0.140869 0.522949 0.000000
0.193604 0.522949 0.000000
0.242310 0.522949 0.000000
0.287109 0.522949 0.000000
0.328857 0.522949 0.000000
0.368408 0.522949 0.000000
0.406006 0.522949 0.000000
0.441895 0.522949 0.000000
0.476318 0.522949 0.000000
0.509766 0.522949 0.000000
0.541016 0.522949 0.000000
0.571777 0.522949 0.000000
0.602051 0.522949 0.000000
0.631348 0.522949 0.000000
0.660645 0.522949 0.000000
0.688477 0.522949 0.000000
0.715820 0.522949 0.000000
0.742676 0.522949 0.000000
0.769043 0.522949 0.000000
0.794434 0.522949 0.000000
0.819824 0.522949 0.000000
0.844727 0.522949 0.000000
0.869141 0.522949 0.000000
0.893066 0.522949 0.000000
0.916504 0.522949 0.000000
0.938965 0.522949 0.000000
0.960938 0.522949 0.000000
0.981445 0.522949 0.000000
1.000000 0.522949 0.000000
0.000000 0.556641 0.000000
0.035614 0.556641 0.000000
0.087097 0.556641 0.000000
0.140869 0.556641 0.000000
0.193604 0.556641 0.000000
0.242310 0.556641 0.000000
0.287109 0.556641 0.000000
0.328857 0.556641 0.000000
0.368408 0.556641 0.000000
0.406006 0.556641 0.000000
0.441895 0.556641 0.000000
0.476318 0.556641 0.000000
0.509766 0.556641 0.000000
0.541016 0.556641 0.000000
0.571777 0.556641 0.000000
0.602051 0.556641 0.000000
0.631348 0.556641 0.000000
0.660645 0.556641 0.000000
0.688477 0.556641 0.000000
0.715820 0.556641 0.000000
0.742676 0.556641 0.000000
0.769043 0.556641 0.000000
0.794434 0.556641 0.000000
0.819824 0.556641 0.000000
0.844727 0.556641 0.000000
0.869141 0.556641 0.000000
0.893066 0.556641 0.000000
0.916504 0.556641 0.000000
0.938965 0.556641 0.000000
0.960938 0.556641 0.000000
0.981445 0.556641 0.000000
1.000000 0.556641 0.000000
0.000000 0.588379 0.000000
0.035614 0.588379 0.000000
0.087097 0.588379 0.000000
0.140869 0.588379 0.000000
0.193604 0.588379 0.000000
0.242310 0.588379 0.000000
0.287109 0.588379 0.000000
0.328857 0.588379 0.000000
0.368408 0.588379 0.000000
0.406006 0.588379 0.000000
0.441895 0.588379 0.000000
0.476318 0.588379 0.000000
0.509766 0.588379 0.000000
0.541016 0.588379 0.000000
0.571777 0.588379 0.000000
0.602051 0.588379 0.000000
0.631348 0.588379 0.000000
0.660645 0.588379 0.000000
0.688477 0.588379 0.000000
0.715820 0.588379 0.000000
0.742676 0.588379 0.000000
0.769043 0.588379 0.000000
0.794434 0.588379 0.000000
0.819824 0.588379 0.000000
0.844727 0.588379 0.000000
0.869141 0.588379 0.000000
0.893066 0.588379 0.000000
0.916504 0.588379 0.000000
0.938965 0.588379 0.000000
0.960938 0.588379 0.000000
0.981445 0.588379 0.000000
1.000000 0.588379 0.000000
0.000000 0.619141 0.000000
0.035614 0.619141 0.000000
0.087097 0.619141 0.000000
0.140869 0.619141 0.000000
0.193604 0.619141 0.000000
0.242310 0.619141 0.000000
0.287109 0.619141 0.000000
0.328857 0.619141 0.000000
0.368408 0.619141 0.000000
0.406006 0.619141 0.000000
0.441895 0.619141 0.000000
0.476318 0.619141 0.000000
0.509766 0.619141 0.000000
0.541016 0.619141 0.000000
0.571777 0.619141 0.000000
0.602051 0.619141 0.000000
0.631348 0.619141 0.000000
0.660645 0.619141 0.000000
0.688477 0.619141 0.000000
0.715820 0.619141 0.000000
0.742676 0.619141 0.000000
0.769043 0.619141 0.000000
0.794434 0.619141 0.000000
0.819824 0.619141 0.000000
0.844727 0.619141 0.000000
0.869141 0.619141 0.000000
0.893066 0.619141 0.000000
0.916504 0.619141 0.000000
0.938965 0.619141 0.000000
0.960938 0.619141 0.000000
0.981445 0.619141 0.000000
1.000000 0.619141 0.000000
0.000000 0.648926 0.000000
0.035614 0.648926 0.000000
0.087097 0.648926 0.000000
0.140869 0.648926 0.000000
0.193604 0.648926 0.000000
0.242310 0.648926 0.000000
0.287109 0.648926 0.000000
0.328857 0.648926 0.000000
0.368408 0.648926 0.000000
0.406006 0.648926 0.000000
0.441895 0.648926 0.000000
0.476318 0.648926 0.000000
0.509766 0.648926 0.000000
0.541016 0.648926 0.000000
0.571777 0.648926 0.000000
0.602051 0.648926 0.000000
0.631348 0.648926 0.000000
0.660645 0.648926 0.000000
0.688477 0.648926 0.000000
0.715820 0.648926 0.000000
0.742676 0.648926 0.000000
0.769043 0.648926 0.000000
0.794434 0.648926 0.000000
0.819824 0.648926 0.000000
0.844727 0.648926 0.000000
0.869141 0.648926 0.000000
0.893066 0.648926 0.000000
0.916504 0.648926 0.000000
0.938965 0.648926 0.000000
0.960938 0.648926 0.000000
0.981445 0.648926 0.000000
1.000000 0.648926 0.000000
0.000000 0.677246 0.000000
0.035614 0.677246 0.000000
0.087097 0.677246 0.000000
0.140869 0.677246 0.000000
0.193604 0.677246 0.000000
0.242310 0.677246 0.000000
0.287109 0.677246 0.000000
0.328857 0.677246 0.000000
0.368408 0.677246 0.000000
0.406006 0.677246 0.000000
0.441895 0.677246 0.000000
0.476318 0.677246 0.000000
0.509766 0.677246 0.000000
0.541016 0.677246 0.000000
0.571777 0.677246 0.000000
0.602051 0.677246 0.000000
0.631348 0.677246 0.000000
0.660645 0.677246 0.000000
0.688477 0.677246 0.000000
0.715820 0.677246 0.000000
0.742676 0.677246 0.000000
0.769043 0.677246 0.000000
0.794434 0.677246 0.000000
0.819824 0.677246 0.000000
0.844727 0.677246 0.000000
0.869141 0.677246 0.000000
0.893066 0.677246 0.000000
0.916504 0.677246 0.000000
0.938965 0.677246 0.000000
0.960938 0.677246 0.000000
0.981445 0.677246 0.000000
1.000000 0.677246 0.000000
0.000000 0.704590 0.000000
0.035614 0.704590 0.000000
0.087097 0.704590 0.000000
0.140869 0.704590 0.000000
0.193604 0.704590 0.000000
0.242310 0.704590 0.000000
0.287109 0.704590 0.000000
0.328857 0.704590 0.000000
0.368408 0.704590 0.000000
0.406006 0.704590 0.000000
0.441895 0.704590 0.000000
0.476318 0.704590 0.000000
0.509766 0.704590 0.000000
0.541016 0.704590 0.000000
0.571777 0.704590 0.000000
0.602051 0.704590 0.000000
0.631348 0.704590 0.000000
0.660645 0.704590 0.000000
0.688477 0.704590 0.000000
0.715820 0.704590 0.000000
0.742676 0.704590 0.000000
0.769043 0.704590 0.000000
0.794434 0.704590 0.000000
0.819824 0.704590 0.000000
0.844727 0.704590 0.000000
0.869141 0.704590 0.000000
0.893066 0.704590 0.000000
0.916504 0.704590 0.000000
0.938965 0.704590 0.000000
0.960938 0.704590 0.000000
0.981445 0.704590 0.000000
1.000000 0.704590 0.000000
0.000000 0.731445 0.000000
0.035614 0.731445 0.000000
0.087097 0.731445 0.000000
0.140869 0.731445 0.000000
0.193604 0.731445 0.000000
0.242310 0.731445 0.000000
0.287109 0.731445 0.000000
0.328857 0.731445 0.000000
0.368408 0.731445 0.000000
0.406006 0.731445 0.000000
0.441895 0.731445 0.000000
0.476318 0.731445 0.000000
0.509766 0.731445 0.000000
0.541016 0.731445 0.000000
0.571777 0.731445 0.000000
0.602051 0.731445 0.000000
0.631348 0.731445 0.000000
0.660645 0.731445 0.000000
0.688477 0.731445 0.000000
0.715820 0.731445 0.000000
0.742676 0.731445 0.000000
0.769043 0.731445 0.000000
0.794434 0.731445 0.000000
0.819824 0.731445 0.000000
0.844727 0.731445 0.000000
0.869141 0.731445 0.000000
0.893066 0.731445 0.000000
0.916504 0.731445 0.000000
0.938965 0.731445 0.000000
0.960938 0.731445 0.000000
0.981445 0.731445 0.000000
1.000000 0.731445 0.000000
0.000000 0.757324 0.000000
0.035614 0.757324 0.000000
0.087097 0.757324 0.000000
0.140869 0.757324 0.000000
0.193604 0.757324 0.000000
0.242310 0.757324 0.000000
0.287109 0.757324 0.000000
0.328857 0.757324 0.000000
0.368408 0.757324 0.000000
0.406006 0.757324 0.000000
0.441895 0.757324 0.000000
0.476318 0.757324 0.000000
0.509766 0.757324 0.000000
0.541016 0.757324 0.000000
0.571777 0.757324 0.000000
0.602051 0.757324 0.000000
0.631348 0.757324 0.000000
0.660645 0.757324 0.000000
0.688477 0.757324 0.000000
0.715820 0.757324 0.000000
0.742676 0.757324 0.000000
0.769043 0.757324 0.000000
0.794434 0.757324 0.000000
0.819824 0.757324 0.000000
0.844727 0.757324 0.000000
0.869141 0.757324 0.000000
0.893066 0.757324 0.000000
0.916504 0.757324 0.000000
0.938965 0.757324 0.000000
0.960938 0.757324 0.000000
0.981445 0.757324 0.000000
1.000000 0.757324 0.000000
0.000000 0.782227 0.000000
0.035614 0.782227 0.000000
0.087097 0.782227 0.000000
0.140869 0.782227 0.000000
0.193604 0.782227 0.000000
0.242310 0.782227 0.000000
0.287109 0.782227 0.000000
0.328857 0.782227 0.000000
0.368408 0.782227 0.000000
0.406006 0.782227 0.000000
0.441895 0.782227 0.000000
0.476318 0.782227 0.000000
0.509766 0.782227 0.000000
0.541016 0.782227 0.000000
0.571777 0.782227 0.000000
0.602051 0.782227 0.000000
0.631348 0.782227 0.000000
0.660645 0.782227 0.000000
0.688477 0.782227 0.000000
0.715820 0.782227 0.000000
0.742676 0.782227 0.000000
0.769043 0.782227 0.000000
0.794434 0.782227 0.000000
0.819824 0.782227 0.000000
0.844727 0.782227 0.000000
0.869141 0.782227 0.000000
0.893066 0.782227 0.000000
0.916504 0.782227 0.000000
0.938965 0.782227 0.000000
0.960938 0.782227 0.000000
0.981445 0.782227 0.000000
1.000000 0.782227 0.000000
0.000000 0.807129 0.000000
0.035614 0.807129 0.000000
0.087097 0.807129 0.000000
0.140869 0.807129 0.000000
0.193604 0.807129 0.000000
0.242310 0.807129 0.000000
0.287109 0.807129 0.000000
0.328857 0.807129 0.000000
0.368408 0.807129 0.000000
0.406006 0.807129 0.000000
0.441895 0.807129 0.000000
0.476318 0.807129 0.000000
0.509766 0.807129 0.000000
0.541016 0.807129 0.000000
0.571777 0.807129 0.000000
0.602051 0.807129 0.000000
0.631348 0.807129 0.000000
0.660645 0.807129 0.000000
0.688477 0.807129 0.000000
0.715820 0.807129 0.000000
0.742676 0.807129 0.000000
0.769043 0.807129 0.000000
0.794434 0.807129 0.000000
0.819824 0.807129 0.000000
0.844727 0.807129 0.000000
0.869141 0.807129 0.000000
0.893066 0.807129 0.000000
0.916504 0.807129 0.000000
0.938965 0.807129 0.000000
0.960938 0.807129 0.000000
0.981445 0.807129 0.000000
1.000000 0.807129 0.000000
0.000000 0.831055 0.000000
0.035614 0.831055 0.000000
0.087097 0.831055 0.000000
0.140869 0.831055 0.000000
0.193604 0.831055 0.000000
0.242310 0.831055 0.000000
0.287109 0.831055 0.000000
0.328857 0.831055 0.000000
0.368408 0.831055 0.000000
0.406006 0.831055 0.000000
0.441895 0.831055 0.000000
0.476318 0.831055 0.000000
0.509766 0.831055 0.000000
0.541016 0.831055 0.000000
0.571777 0.831055 0.000000
0.602051 0.831055 0.000000
0.631348 0.831055 0.000000
0.660645 0.831055 0.000000
0.688477 0.831055 0.000000
0.715820 0.831055 0.000000
0.742676 0.831055 0.000000
0.769043 0.831055 0.000000
0.794434 0.831055 0.000000
0.819824 0.831055 0.000000
0.844727 0.831055 0.000000
0.869141 0.831055 0.000000
0.893066 0.831055 0.000000
0.916504 0.831055 0.000000
0.938965 0.831055 0.000000
0.960938 0.831055 0.000000
0.981445 0.831055 0.000000
1.000000 0.831055 0.000000
0.000000 0.854980 0.000000
0.035614 0.854980 0.000000
0.087097 0.854980 0.000000
0.140869 0.854980 0.000000
0.193604 0.854980 0.000000
0.242310 0.854980 0.000000
0.287109 0.854980 0.000000
0.328857 0.854980 0.000000
0.368408 0.854980 0.000000
0.406006 0.854980 0.000000
0.441895 0.854980 0.000000
0.476318 0.854980 0.000000
0.509766 0.854980 0.000000
0.541016 0.854980 0.000000
0.571777 0.854980 0.000000
0.602051 0.854980 0.000000
0.631348 0.854980 0.000000
0.660645 0.854980 0.000000
0.688477 0.854980 0.000000
0.715820 0.854980 0.000000
0.742676 0.854980 0.000000
0.769043 0.854980 0.000000
0.794434 0.854980 0.000000
0.819824 0.854980 0.000000
0.844727 0.854980 0.000000
0.869141 0.854980 0.000000
0.893066 0.854980 0.000000
0.916504 0.854980 0.000000
0.938965 0.854980 0.000000
0.960938 0.854980 0.000000
0.981445 0.854980 0.000000
1.000000 0.854980 0.000000
0.000000 0.877930 0.000000
0.035614 0.877930 0.000000
0.087097 0.877930 0.000000
0.140869 0.877930 0.000000
0.193604 0.877930 0.000000
0.242310 0.877930 0.000000
0.287109 0.877930 0.000000
0.328857 0.877930 0.000000
0.368408 0.877930 0.000000
0.406006 0.877930 0.000000
0.441895 0.877930 0.000000
0.476318 0.877930 0.000000
0.509766 0.877930 0.000000
0.541016 0.877930 0.000000
0.571777 0.877930 0.000000
0.602051 0.877930 0.000000
0.631348 0.877930 0.000000
0.660645 0.877930 0.000000
0.688477 0.877930 0.000000
0.715820 0.877930 0.000000
0.742676 0.877930 0.000000
0.769043 0.877930 0.000000
0.794434 0.877930 0.000000
0.819824 0.877930 0.000000
0.844727 0.877930 0.000000
0.869141 0.877930 0.000000
0.893066 0.877930 0.000000
0.916504 0.877930 0.000000
0.938965 0.877930 0.000000
0.960938 0.877930 0.000000
0.981445 0.877930 0.000000
1.000000 0.877930 0.000000
0.000000 0.900879 0.000000
0.035614 0.900879 0.000000
0.087097 0.900879 0.000000
0.140869 0.900879 0.000000
0.193604 0.900879 0.000000
0.242310 0.900879 0.000000
0.287109 0.900879 0.000000
0.328857 0.900879 0.000000
0.368408 0.900879 0.000000
0.406006 0.900879 0.000000
0.441895 0.900879 0.000000
0.476318 0.900879 0.000000
0.509766 0.900879 0.000000
0.541016 0.900879 0.000000
0.571777 0.900879 0.000000
0.602051 0.900879 0.000000
0.631348 0.900879 0.000000
0.660645 0.900879 0.000000
0.688477 0.900879 0.000000
0.715820 0.900879 0.000000
0.742676 0.900879 0.000000
0.769043 0.900879 0.000000
0.794434 0.900879 0.000000
0.819824 0.900879 0.000000
0.844727 0.900879 0.000000
0.869141 0.900879 0.000000
0.893066 0.900879 0.000000
0.916504 0.900879 0.000000
0.938965 0.900879 0.000000
0.960938 0.900879 0.000000
0.981445 0.900879 0.000000
1.000000 0.900879 0.000000
0.000000 0.922852 0.000000
0.035614 0.922852 0.000000
0.087097 0.922852 0.000000
0.140869 0.922852 0.000000
0.193604 0.922852 0.000000
0.242310 0.922852 0.000000
0.287109 0.922852 0.000000
0.328857 0.922852 0.000000
0.368408 0.922852 0.000000
0.406006 0.922852 0.000000
0.441895 0.922852 0.000000
0.476318 0.922852 0.000000
0.509766 0.922852 0.000000
0.541016 0.922852 0.000000
0.571777 0.922852 0.000000
0.602051 0.922852 0.000000
0.631348 0.922852 0.000000
0.660645 0.922852 0.000000
0.688477 0.922852 0.000000
0.715820 0.922852 0.000000
0.742676 0.922852 0.000000
0.769043 0.922852 0.000000
0.794434 0.922852 0.000000
