files/blender/Blender/4.5/scripts/presets/FinalLUT/Adanmq_AgfaColor Futura II 200.cube
TITLE "Generated by Foundry::LUT"
LUT_3D_SIZE 8
DOMAIN_MIN 0.000000 0.000000 0.000000
DOMAIN_MAX 0.903226 0.903226 0.903226
0.000000 0.000000 0.000000
0.193604 0.000000 0.000000
0.368408 0.000000 0.000000
0.509766 0.000000 0.000000
0.631348 0.000000 0.000000
0.742676 0.000000 0.000000
0.844727 0.000000 0.000000
0.938965 0.000000 0.000000
0.000000 0.182739 0.000000
0.193604 0.182739 0.000000
0.368408 0.182739 0.000000
0.509766 0.182739 0.000000
0.631348 0.182739 0.000000
0.742676 0.182739 0.000000
0.844727 0.182739 0.000000
0.938965 0.182739 0.000000
0.000000 0.370361 0.000000
0.193604 0.370361 0.000000
0.368408 0.370361 0.000000
0.509766 0.370361 0.000000
0.631348 0.370361 0.000000
0.742676 0.370361 0.000000
0.844727 0.370361 0.000000
0.938965 0.370361 0.000000
0.000000 0.522949 0.000000
0.193604 0.522949 0.000000
0.368408 0.522949 0.000000
0.509766 0.522949 0.000000
0.631348 0.522949 0.000000
0.742676 0.522949 0.000000
0.844727 0.522949 0.000000
0.938965 0.522949 0.000000
0.000000 0.648926 0.000000
0.193604 0.648926 0.000000
0.368408 0.648926 0.000000
0.509766 0.648926 0.000000
0.631348 0.648926 0.000000
0.742676 0.648926 0.000000
0.844727 0.648926 0.000000
0.938965 0.648926 0.000000
0.000000 0.757324 0.000000
0.193604 0.757324 0.000000
0.368408 0.757324 0.000000
0.509766 0.757324 0.000000
0.631348 0.757324 0.000000
0.742676 0.757324 0.000000
0.844727 0.757324 0.000000
0.938965 0.757324 0.000000
0.000000 0.854980 0.000000
0.193604 0.854980 0.000000
0.368408 0.854980 0.000000
0.509766 0.854980 0.000000
0.631348 0.854980 0.000000
0.742676 0.854980 0.000000
0.844727 0.854980 0.000000
0.938965 0.854980 0.000000
0.000000 0.943848 0.000000
0.193604 0.943848 0.000000
0.368408 0.943848 0.000000
0.509766 0.943848 0.000000
0.631348 0.943848 0.000000
0.742676 0.943848 0.000000
0.844727 0.943848 0.000000
0.938965 0.943848 0.000000
0.000000 0.000000 0.144287
0.193726 0.000000 0.144287
0.368652 0.000000 0.144287
0.509766 0.000000 0.144287
0.631348 0.000000 0.144287
0.742676 0.000000 0.144287
0.844727 0.000000 0.144287
0.938965 0.000000 0.144287
0.000000 0.182739 0.144287
0.193726 0.182739 0.144287
0.368652 0.182739 0.144287
0.509766 0.182739 0.144287
0.631348 0.182739 0.144287
0.742676 0.182739 0.144287
0.844727 0.182739 0.144287
0.938965 0.182739 0.144287
0.000000 0.370361 0.144287
0.193726 0.370361 0.144287
0.368652 0.370361 0.144287
0.509766 0.370361 0.144287
0.631348 0.370361 0.144287
0.742676 0.370361 0.144287
0.844727 0.370361 0.144287
0.938965 0.370361 0.144287
0.000000 0.522949 0.144287
0.193726 0.522949 0.144287
0.368652 0.522949 0.144287
0.509766 0.522949 0.144287
0.631348 0.522949 0.144287
0.742676 0.522949 0.144287
0.844727 0.522949 0.144287
0.938965 0.522949 0.144287
0.000000 0.648926 0.144287
0.193726 0.648926 0.144287
0.368652 0.648926 0.144287
0.509766 0.648926 0.144287
0.631348 0.648926 0.144287
0.742676 0.648926 0.144287
0.844727 0.648926 0.144287
0.938965 0.648926 0.144287
0.000000 0.757324 0.144287
0.193726 0.757324 0.144287
0.368652 0.757324 0.144287
0.509766 0.757324 0.144287
0.631348 0.757324 0.144287
0.742676 0.757324 0.144287
0.844727 0.757324 0.144287
0.938965 0.757324 0.144287
0.000000 0.854980 0.144287
0.193726 0.854980 0.144287
0.368652 0.854980 0.144287
0.509766 0.854980 0.144287
0.631348 0.854980 0.144287
0.742676 0.854980 0.144287
0.844727 0.854980 0.144287
0.938965 0.854980 0.144287
0.000000 0.943848 0.144287
0.193726 0.943848 0.144287
0.368652 0.943848 0.144287
0.509766 0.943848 0.144287
0.631348 0.943848 0.144287
0.742676 0.943848 0.144287
0.844727 0.943848 0.144287
0.938965 0.943848 0.144287
0.000000 0.000000 0.310303
0.193726 0.000000 0.310303
0.368652 0.000000 0.310303
0.509766 0.000000 0.310303
0.631348 0.000000 0.310303
0.742676 0.000000 0.310303
0.844727 0.000000 0.310303
0.938965 0.000000 0.310303
0.000000 0.182739 0.310303
0.193726 0.182739 0.310303
0.368652 0.182739 0.310303
0.509766 0.182739 0.310303
0.631348 0.182739 0.310303
0.742676 0.182739 0.310303
0.844727 0.182739 0.310303
0.938965 0.182739 0.310303
0.000000 0.370361 0.310303
0.193726 0.370361 0.310303
0.368652 0.370361 0.310303
0.509766 0.370361 0.310303
0.631348 0.370361 0.310303
0.742676 0.370361 0.310303
0.844727 0.370361 0.310303
0.938965 0.370361 0.310303
0.000000 0.522949 0.310303
0.193726 0.522949 0.310303
0.368652 0.522949 0.310303
0.509766 0.522949 0.310303
0.631348 0.522949 0.310303
0.742676 0.522949 0.310303
0.844727 0.522949 0.310303
0.938965 0.522949 0.310303
0.000000 0.648926 0.310303
0.193726 0.648926 0.310303
0.368652 0.648926 0.310303
0.509766 0.648926 0.310303
0.631348 0.648926 0.310303
0.742676 0.648926 0.310303
0.844727 0.648926 0.310303
0.938965 0.648926 0.310303
0.000000 0.757324 0.310303
0.193726 0.757324 0.310303
0.368652 0.757324 0.310303
0.509766 0.757324 0.310303
0.631348 0.757324 0.310303
0.742676 0.757324 0.310303
0.844727 0.757324 0.310303
0.938965 0.757324 0.310303
0.000000 0.854980 0.310303
0.193726 0.854980 0.310303
0.368652 0.854980 0.310303
0.509766 0.854980 0.310303
0.631348 0.854980 0.310303
0.742676 0.854980 0.310303
0.844727 0.854980 0.310303
0.938965 0.854980 0.310303
0.000000 0.943848 0.310303
0.193726 0.943848 0.310303
0.368652 0.943848 0.310303
0.509766 0.943848 0.310303
0.631348 0.943848 0.310303
0.742676 0.943848 0.310303
0.844727 0.943848 0.310303
0.938965 0.943848 0.310303
0.000000 0.000000 0.457275
0.193726 0.000000 0.457275
0.368652 0.000000 0.457275
0.509766 0.000000 0.457275
0.631348 0.000000 0.457275
0.742676 0.000000 0.457275
0.844727 0.000000 0.457275
0.938965 0.000000 0.457275
0.000000 0.182739 0.457275
0.193726 0.182739 0.457275
0.368652 0.182739 0.457275
0.509766 0.182739 0.457275
0.631348 0.182739 0.457275
0.742676 0.182739 0.457275
0.844727 0.182739 0.457275
0.938965 0.182739 0.457275
0.000000 0.370361 0.457275
0.193726 0.370361 0.457275
0.368652 0.370361 0.457275
0.509766 0.370361 0.457275
0.631348 0.370361 0.457275
0.742676 0.370361 0.457275
0.844727 0.370361 0.457275
0.938965 0.370361 0.457275
0.000000 0.522949 0.457275
0.193726 0.522949 0.457275
0.368652 0.522949 0.457275
0.509766 0.522949 0.457275
0.631348 0.522949 0.457275
0.742676 0.522949 0.457275
0.844727 0.522949 0.457275
0.938965 0.522949 0.457275
0.000000 0.648926 0.457275
0.193726 0.648926 0.457275
0.368652 0.648926 0.457275
0.509766 0.648926 0.457275
0.631348 0.648926 0.457275
0.742676 0.648926 0.457275
0.844727 0.648926 0.457275
0.938965 0.648926 0.457275
0.000000 0.757324 0.457275
0.193726 0.757324 0.457275
0.368652 0.757324 0.457275
0.509766 0.757324 0.457275
0.631348 0.757324 0.457275
0.742676 0.757324 0.457275
0.844727 0.757324 0.457275
0.938965 0.757324 0.457275
0.000000 0.854980 0.457275
0.193726 0.854980 0.457275
0.368652 0.854980 0.457275
0.509766 0.854980 0.457275
0.631348 0.854980 0.457275
0.742676 0.854980 0.457275
0.844727 0.854980 0.457275
0.938965 0.854980 0.457275
0.000000 0.943848 0.457275
0.193726 0.943848 0.457275
0.368652 0.943848 0.457275
0.509766 0.943848 0.457275
0.631348 0.943848 0.457275
0.742676 0.943848 0.457275
0.844727 0.943848 0.457275
0.938965 0.943848 0.457275
0.000001 0.000000 0.584473
0.193848 0.000000 0.584473
0.368652 0.000000 0.584473
0.509766 0.000000 0.584473
0.631348 0.000000 0.584473
0.742676 0.000000 0.584473
0.844727 0.000000 0.584473
0.938965 0.000000 0.584473
0.000001 0.182739 0.584473
0.193848 0.182739 0.584473
0.368652 0.182739 0.584473
0.509766 0.182739 0.584473
0.631348 0.182739 0.584473
0.742676 0.182739 0.584473
0.844727 0.182739 0.584473
0.938965 0.182739 0.584473
0.000001 0.370361 0.584473
0.193848 0.370361 0.584473
0.368652 0.370361 0.584473
0.509766 0.370361 0.584473
0.631348 0.370361 0.584473
0.742676 0.370361 0.584473
0.844727 0.370361 0.584473
0.938965 0.370361 0.584473
0.000001 0.522949 0.584473
0.193848 0.522949 0.584473
0.368652 0.522949 0.584473
0.509766 0.522949 0.584473
0.631348 0.522949 0.584473
0.742676 0.522949 0.584473
0.844727 0.522949 0.584473
0.938965 0.522949 0.584473
0.000001 0.648926 0.584473
0.193848 0.648926 0.584473
0.368652 0.648926 0.584473
0.509766 0.648926 0.584473
0.631348 0.648926 0.584473
0.742676 0.648926 0.584473
0.844727 0.648926 0.584473
0.938965 0.648926 0.584473
0.000001 0.757324 0.584473
0.193848 0.757324 0.584473
0.368652 0.757324 0.584473
0.509766 0.757324 0.584473
0.631348 0.757324 0.584473
0.742676 0.757324 0.584473
0.844727 0.757324 0.584473
0.938965 0.757324 0.584473
0.000001 0.854980 0.584473
0.193848 0.854980 0.584473
0.368652 0.854980 0.584473
0.509766 0.854980 0.584473
0.631348 0.854980 0.584473
0.742676 0.854980 0.584473
0.844727 0.854980 0.584473
0.938965 0.854980 0.584473
0.000001 0.943848 0.584473
0.193848 0.943848 0.584473
0.368652 0.943848 0.584473
0.509766 0.943848 0.584473
0.631348 0.943848 0.584473
0.742676 0.943848 0.584473
0.844727 0.943848 0.584473
0.938965 0.943848 0.584473
0.000001 0.000000 0.701172
0.193848 0.000000 0.701172
0.368652 0.000000 0.701172
0.509766 0.000000 0.701172
0.631348 0.000000 0.701172
0.742676 0.000000 0.701172
0.844727 0.000000 0.701172
0.938965 0.000000 0.701172
0.000001 0.182739 0.701172
0.193848 0.182739 0.701172
0.368652 0.182739 0.701172
0.509766 0.182739 0.701172
0.631348 0.182739 0.701172
0.742676 0.182739 0.701172
0.844727 0.182739 0.701172
0.938965 0.182739 0.701172
0.000001 0.370117 0.701172
0.193848 0.370361 0.701172
0.368652 0.370361 0.701172
0.509766 0.370361 0.701172
0.631348 0.370361 0.701172
0.742676 0.370361 0.701172
0.844727 0.370361 0.701172
0.938965 0.370361 0.701172
0.000001 0.522949 0.701172
0.193848 0.522949 0.701172
0.368652 0.522949 0.701172
0.509766 0.522949 0.701172
0.631348 0.522949 0.701172
0.742676 0.522949 0.701172
0.844727 0.522949 0.701172
0.938965 0.522949 0.701172
0.000001 0.648926 0.701172
0.193848 0.648926 0.701172
0.368652 0.648926 0.701172
0.509766 0.648926 0.701172
0.631348 0.648926 0.701172
0.742676 0.648926 0.701172
0.844727 0.648926 0.701172
0.938965 0.648926 0.701172
0.000001 0.757324 0.701172
0.193848 0.757324 0.701172
0.368652 0.757324 0.701172
0.509766 0.757324 0.701172
0.631348 0.757324 0.701172
0.742676 0.757324 0.701172
0.844727 0.757324 0.701172
0.938965 0.757324 0.701172
0.000001 0.854980 0.701172
0.193848 0.854980 0.701172
0.368652 0.854980 0.701172
0.509766 0.854980 0.701172
0.631348 0.854980 0.701172
0.742676 0.854980 0.701172
0.844727 0.854980 0.701172
0.938965 0.854980 0.701172
0.000001 0.943848 0.701172
0.193848 0.943848 0.701172
0.368652 0.943848 0.701172
0.509766 0.943848 0.701172
0.631348 0.943848 0.701172
0.742676 0.943848 0.701172
0.844727 0.943848 0.701172
0.938965 0.943848 0.701172
0.000002 0.000000 0.815918
0.193848 0.000000 0.815918
0.368652 0.000000 0.815918
0.509766 0.000000 0.815918
0.631348 0.000000 0.815918
0.742676 0.000000 0.815918
0.844727 0.000000 0.815918
0.938965 0.000000 0.815918
0.000002 0.182739 0.815918
0.193848 0.182739 0.815918
0.368652 0.182739 0.815918
0.509766 0.182739 0.815918
0.631348 0.182739 0.815918
0.742676 0.182739 0.815918
0.844727 0.182739 0.815918
0.938965 0.182739 0.815918
0.000002 0.370117 0.815918
0.193848 0.370117 0.815918
0.368652 0.370361 0.815918
0.509766 0.370361 0.815918
0.631348 0.370361 0.815918
0.742676 0.370361 0.815918
0.844727 0.370361 0.815918
0.938965 0.370361 0.815918
0.000002 0.522949 0.815918
0.193848 0.522949 0.815918
0.368652 0.522949 0.815918
0.509766 0.522949 0.815918
0.631348 0.522949 0.815918
0.742676 0.522949 0.815918
0.844727 0.522949 0.815918
0.938965 0.522949 0.815918
0.000002 0.648926 0.815918
0.193848 0.648926 0.815918
0.368652 0.648926 0.815918
0.509766 0.648926 0.815918
0.631348 0.648926 0.815918
0.742676 0.648926 0.815918
0.844727 0.648926 0.815918
0.938965 0.648926 0.815918
0.000002 0.757324 0.815918
0.193848 0.757324 0.815918
0.368652 0.757324 0.815918
0.509766 0.757324 0.815918
0.631348 0.757324 0.815918
0.742676 0.757324 0.815918
0.844727 0.757324 0.815918
0.938965 0.757324 0.815918
0.000002 0.854980 0.815918
0.193848 0.854980 0.815918
0.368652 0.854980 0.815918
0.509766 0.854980 0.815918
0.631348 0.854980 0.815918
0.742676 0.854980 0.815918
0.844727 0.854980 0.815918
0.938965 0.854980 0.815918
0.000002 0.943848 0.815918
0.193848 0.943848 0.815918
0.368652 0.943848 0.815918
0.509766 0.943848 0.815918
0.631348 0.943848 0.815918
0.742676 0.943848 0.815918
0.844727 0.943848 0.815918
0.938965 0.943848 0.815918
0.000002 0.000000 0.928711
0.193970 0.000000 0.928711
0.368652 0.000000 0.928711
0.509766 0.000000 0.928711
0.631348 0.000000 0.928711
0.742676 0.000000 0.928711
0.844727 0.000000 0.928711
0.938965 0.000000 0.928711
0.000002 0.182739 0.928711
0.193970 0.182739 0.928711
0.368652 0.182739 0.928711
0.509766 0.182739 0.928711
0.631348 0.182739 0.928711
0.742676 0.182739 0.928711
0.844727 0.182739 0.928711
0.938965 0.182739 0.928711
0.000002 0.370117 0.928711
0.193970 0.370117 0.928711
0.368652 0.370117 0.928711
0.509766 0.370361 0.928711
0.631348 0.370361 0.928711
0.742676 0.370361 0.928711
0.844727 0.370361 0.928711
0.938965 0.370361 0.928711
0.000002 0.522949 0.928711
0.193970 0.522949 0.928711
0.368652 0.522949 0.928711
0.509766 0.522949 0.928711
0.631348 0.522949 0.928711
0.742676 0.522949 0.928711
0.844727 0.522949 0.928711
0.938965 0.522949 0.928711
0.000002 0.648926 0.928711
0.193970 0.648926 0.928711
0.368652 0.648926 0.928711
0.509766 0.648926 0.928711
0.631348 0.648926 0.928711
0.742676 0.648926 0.928711
0.844727 0.648926 0.928711
0.938965 0.648926 0.928711
0.000002 0.757324 0.928711
0.193970 0.757324 0.928711
0.368652 0.757324 0.928711
0.509766 0.757324 0.928711
0.631348 0.757324 0.928711
0.742676 0.757324 0.928711
0.844727 0.757324 0.928711
0.938965 0.757324 0.928711
0.000002 0.854980 0.928711
0.193970 0.854980 0.928711
0.368652 0.854980 0.928711
0.509766 0.854980 0.928711
0.631348 0.854980 0.928711
0.742676 0.854980 0.928711
0.844727 0.854980 0.928711
0.938965 0.854980 0.928711
0.000002 0.943848 0.928711
0.193970 0.943848 0.928711
0.368652 0.943848 0.928711
0.509766 0.943848 0.928711
0.631348 0.943848 0.928711
0.742676 0.943848 0.928711
0.844727 0.943848 0.928711
0.938965 0.943848 0.928711
